; LightBurn Core 2.0.04
; GRBL device profile, absolute coords
; Bounds: X106.98 Y21.5 to X142.08 Y51.5
G00 G17 G40 G21 G54
G90
M4
; Image @ 6000 mm/min, 20% power
M8
G0 X106.979Y21.499
; Layer C00
G91
G1 X2.5F6000S0
G1 X4.3S200
G1 X1.2S0
G1 X0.5S200
G1 X0.7S0
G1 X1.3S200
G1 X1.8S0
G1 X1.2S200
G1 X0.7S0
G1 X0.6S200
G1 X0.6S0
G1 X2.5S200
G1 X0.6S0
G1 X1.8S200
G1 X0.7S0
G1 X1.1S200
G1 X0.7S0
G1 X3S200
G1 X0.7S0
G1 X0.6S200
G1 X0.6S0
G1 X0.6S200
G1 X0.7S0
G1 X1.1S200
G1 X0.7S0
G1 X1.8S200
G1 X2.5S0
G1 Y0.1
G1 X-2.5
G1 X-1.8S200
G1 X-0.7S0
G1 X-1.1S200
G1 X-0.7S0
G1 X-0.6S200
G1 X-0.6S0
G1 X-0.6S200
G1 X-0.7S0
G1 X-3S200
G1 X-0.7S0
G1 X-1.1S200
G1 X-0.7S0
G1 X-1.8S200
G1 X-0.6S0
G1 X-2.5S200
G1 X-0.6S0
G1 X-0.6S200
G1 X-0.7S0
G1 X-1.2S200
G1 X-1.8S0
G1 X-1.3S200
G1 X-0.7S0
G1 X-0.5S200
G1 X-1.2S0
G1 X-4.3S200
G1 X-2.5S0
G1 Y0.1
G1 X2.5
G1 X4.3S200
G1 X1.2S0
G1 X0.5S200
G1 X0.7S0
G1 X1.3S200
G1 X1.8S0
G1 X1.2S200
G1 X0.7S0
G1 X0.6S200
G1 X0.6S0
G1 X2.5S200
G1 X0.6S0
G1 X1.8S200
G1 X0.7S0
G1 X1.1S200
G1 X0.7S0
G1 X3S200
G1 X0.7S0
G1 X0.6S200
G1 X0.6S0
G1 X0.6S200
G1 X0.7S0
G1 X1.1S200
G1 X0.7S0
G1 X1.8S200
G1 X2.5S0
G1 Y0.1
G1 X-2.5
G1 X-1.8S200
G1 X-0.7S0
G1 X-1.1S200
G1 X-0.7S0
G1 X-0.6S200
G1 X-0.6S0
G1 X-0.6S200
G1 X-0.7S0
G1 X-3S200
G1 X-0.7S0
G1 X-1.1S200
G1 X-0.7S0
G1 X-1.8S200
G1 X-0.6S0
G1 X-2.5S200
G1 X-0.6S0
G1 X-0.6S200
G1 X-0.7S0
G1 X-1.2S200
G1 X-1.8S0
G1 X-1.3S200
G1 X-0.7S0
G1 X-0.5S200
G1 X-1.2S0
G1 X-4.3S200
G1 X-2.5S0
G1 Y0.1
G1 X2.5
G1 X4.3S200
G1 X1.2S0
G1 X0.5S200
G1 X0.7S0
G1 X1.3S200
G1 X1.8S0
G1 X1.2S200
G1 X0.7S0
G1 X0.6S200
G1 X0.6S0
G1 X2.5S200
G1 X0.6S0
G1 X1.8S200
G1 X0.7S0
G1 X1.1S200
G1 X0.7S0
G1 X3S200
G1 X0.7S0
G1 X0.6S200
G1 X0.6S0
G1 X0.6S200
G1 X0.7S0
G1 X1.1S200
G1 X0.7S0
G1 X1.8S200
G1 X2.5S0
G1 Y0.1
G1 X-2.5
G1 X-1.8S200
G1 X-0.7S0
G1 X-1.1S200
G1 X-0.7S0
G1 X-0.6S200
G1 X-0.6S0
G1 X-0.6S200
G1 X-0.7S0
G1 X-3S200
G1 X-0.7S0
G1 X-1.1S200
G1 X-0.6S0
G1 X-1.9S200
G1 X-0.6S0
G1 X-2.5S200
G1 X-0.6S0
G1 X-0.6S200
G1 X-0.7S0
G1 X-1.2S200
G1 X-1.8S0
G1 X-1.3S200
G1 X-0.7S0
G1 X-0.5S200
G1 X-1.2S0
G1 X-4.3S200
G1 X-2.5S0
G1 Y0.1
G1 X2.5
G1 X0.5S200
G1 X3.1S0
G1 X0.7S200
G1 X2.4S0
G1 X1.8S200
G1 X0.7S0
G1 X0.6S200
G1 X0.6S0
G1 X1.2S200
G1 X0.7S0
G1 X1.2S200
G1 X0.6S0
G1 X0.7S200
G1 X1.2S0
G1 X2.5S200
G1 X0.6S0
G1 X1.7S200
G1 X1.4S0
G1 X2.9S200
G1 X2S0
G1 X1.7S200
G1 X2.5S0
G1 Y0.1
G1 X-2.5
G1 X-1.7S200
G1 X-2S0
G1 X-2.9S200
G1 X-1.4S0
G1 X-1.7S200
G1 X-0.6S0
G1 X-2.5S200
G1 X-1.2S0
G1 X-0.7S200
G1 X-0.6S0
G1 X-1.2S200
G1 X-0.7S0
G1 X-1.2S200
G1 X-0.6S0
G1 X-0.6S200
G1 X-0.7S0
G1 X-1.8S200
G1 X-2.4S0
G1 X-0.7S200
G1 X-3.1S0
G1 X-0.5S200
G1 X-2.5S0
G1 Y0.1
G1 X2.5
G1 X0.5S200
G1 X3.1S0
G1 X0.7S200
G1 X2.4S0
G1 X1.8S200
G1 X0.7S0
G1 X0.6S200
G1 X0.6S0
G1 X1.2S200
G1 X0.7S0
G1 X1.2S200
G1 X0.6S0
G1 X0.7S200
G1 X1.2S0
G1 X2.5S200
G1 X0.6S0
G1 X1.7S200
G1 X1.4S0
G1 X2.9S200
G1 X2S0
G1 X1.7S200
G1 X2.5S0
G1 Y0.1
G1 X-2.5
G1 X-1.7S200
G1 X-2S0
G1 X-2.9S200
G1 X-1.4S0
G1 X-1.7S200
G1 X-0.6S0
G1 X-2.5S200
G1 X-1.2S0
G1 X-0.7S200
G1 X-0.6S0
G1 X-1.2S200
G1 X-0.7S0
G1 X-1.2S200
G1 X-0.6S0
G1 X-0.6S200
G1 X-0.7S0
G1 X-1.8S200
G1 X-2.4S0
G1 X-0.7S200
G1 X-3.1S0
G1 X-0.5S200
G1 X-2.5S0
G1 Y0.1
G1 X2.5
G1 X0.5S200
G1 X3.1S0
G1 X0.7S200
G1 X2.4S0
G1 X1.8S200
G1 X0.7S0
G1 X0.6S200
G1 X0.6S0
G1 X1.2S200
G1 X0.7S0
G1 X1.2S200
G1 X0.6S0
G1 X0.7S200
G1 X1.2S0
G1 X2.5S200
G1 X0.6S0
G1 X1.7S200
G1 X1.4S0
G1 X2.9S200
G1 X2S0
G1 X1.7S200
G1 X2.5S0
G1 Y0.1
G1 X-2.5
G1 X-1.7S200
G1 X-2S0
G1 X-2.9S200
G1 X-1.4S0
G1 X-1.7S200
G1 X-0.6S0
G1 X-2.5S200
G1 X-1.2S0
G1 X-0.7S200
G1 X-0.6S0
G1 X-1.2S200
G1 X-0.7S0
G1 X-1.2S200
G1 X-0.6S0
G1 X-0.6S200
G1 X-0.7S0
G1 X-1.8S200
G1 X-2.4S0
G1 X-0.7S200
G1 X-3.1S0
G1 X-0.5S200
G1 X-2.5S0
G1 Y0.1
G1 X2.5
G1 X0.5S200
G1 X0.7S0
G1 X1.8S200
G1 X0.6S0
G1 X0.7S200
G1 X0.6S0
G1 X0.6S200
G1 X0.6S0
G1 X1.3S200
G1 X0.6S0
G1 X1.8S200
G1 X0.6S0
G1 X0.6S200
G1 X1.3S0
G1 X1.7S200
G1 X1.4S0
G1 X1.1S200
G1 X0.7S0
G1 X1.3S200
G1 X0.6S0
G1 X2.4S200
G1 X5S0
G1 X1.8S200
G1 X2.5S0
G1 Y0.1
G1 X-2.5
G1 X-1.8S200
G1 X-5S0
G1 X-2.4S200
G1 X-0.6S0
G1 X-1.3S200
G1 X-0.7S0
G1 X-1.1S200
G1 X-1.4S0
G1 X-1.7S200
G1 X-1.3S0
G1 X-0.6S200
G1 X-0.6S0
G1 X-1.8S200
G1 X-0.6S0
G1 X-1.3S200
G1 X-0.6S0
G1 X-0.6S200
G1 X-0.6S0
G1 X-0.7S200
G1 X-0.6S0
G1 X-1.8S200
G1 X-0.7S0
G1 X-0.5S200
G1 X-2.5S0
G1 Y0.1
G1 X2.5
G1 X0.5S200
G1 X0.7S0
G1 X1.8S200
G1 X0.6S0
G1 X0.7S200
G1 X0.6S0
G1 X0.6S200
G1 X0.6S0
G1 X1.3S200
G1 X0.6S0
G1 X1.8S200
G1 X0.6S0
G1 X0.6S200
G1 X1.3S0
G1 X1.7S200
G1 X1.4S0
G1 X1.1S200
G1 X0.7S0
G1 X1.3S200
G1 X0.6S0
G1 X2.4S200
G1 X5S0
G1 X1.8S200
G1 X2.5S0
G1 Y0.1
G1 X-2.5
G1 X-1.8S200
G1 X-5S0
G1 X-2.4S200
G1 X-0.6S0
G1 X-1.3S200
G1 X-0.7S0
G1 X-1.1S200
G1 X-1.4S0
G1 X-1.7S200
G1 X-1.3S0
G1 X-0.6S200
G1 X-0.6S0
G1 X-1.8S200
G1 X-0.6S0
G1 X-1.3S200
G1 X-0.6S0
G1 X-0.6S200
G1 X-0.6S0
G1 X-0.7S200
G1 X-0.6S0
G1 X-1.8S200
G1 X-0.7S0
G1 X-0.5S200
G1 X-2.5S0
G1 Y0.1
G1 X2.5
G1 X0.5S200
G1 X0.7S0
G1 X1.8S200
G1 X0.6S0
G1 X0.7S200
G1 X0.6S0
G1 X0.6S200
G1 X0.6S0
G1 X1.3S200
G1 X0.6S0
G1 X1.8S200
G1 X0.6S0
G1 X0.6S200
G1 X1.3S0
G1 X1.7S200
G1 X1.4S0
G1 X1.1S200
G1 X0.7S0
G1 X1.3S200
G1 X0.6S0
G1 X2.4S200
G1 X5S0
G1 X1.8S200
G1 X2.5S0
G1 Y0.1
G1 X-2.5
G1 X-1.8S200
G1 X-5S0
G1 X-2.4S200
G1 X-0.6S0
G1 X-1.3S200
G1 X-0.7S0
G1 X-1.1S200
G1 X-1.4S0
G1 X-1.7S200
G1 X-1.3S0
G1 X-0.6S200
G1 X-0.6S0
G1 X-1.8S200
G1 X-0.6S0
G1 X-1.3S200
G1 X-0.6S0
G1 X-0.6S200
G1 X-0.6S0
G1 X-0.7S200
G1 X-0.6S0
G1 X-1.8S200
G1 X-0.7S0
G1 X-0.5S200
G1 X-2.5S0
G1 Y0.1
G1 X2.5
G1 X0.5S200
G1 X0.7S0
G1 X1.8S200
G1 X0.6S0
G1 X0.7S200
G1 X0.6S0
G1 X1.1S200
G1 X1.3S0
G1 X1.8S200
G1 X0.7S0
G1 X2.5S200
G1 X0.6S0
G1 X2.5S200
G1 X0.6S0
G1 X1.9S200
G1 X0.6S0
G1 X1.8S200
G1 X1.2S0
G1 X1.8S200
G1 X1.9S0
G1 X2.4S200
G1 X2S0
G1 X0.5S200
G1 X2.5S0
G1 Y0.1
G1 X-2.5
G1 X-0.5S200
G1 X-2S0
G1 X-2.4S200
G1 X-1.9S0
G1 X-1.8S200
G1 X-1.2S0
G1 X-1.8S200
G1 X-0.7S0
G1 X-1.8S200
G1 X-0.6S0
G1 X-2.5S200
G1 X-0.6S0
G1 X-2.5S200
G1 X-0.7S0
G1 X-1.7S200
G1 X-1.4S0
G1 X-1.1S200
G1 X-0.6S0
G1 X-0.7S200
G1 X-0.6S0
G1 X-1.8S200
G1 X-0.7S0
G1 X-0.5S200
G1 X-2.5S0
G1 Y0.1
G1 X2.5
G1 X0.5S200
G1 X0.7S0
G1 X1.8S200
G1 X0.6S0
G1 X0.7S200
G1 X0.6S0
G1 X1.1S200
G1 X1.4S0
G1 X1.7S200
G1 X0.7S0
G1 X2.5S200
G1 X0.6S0
G1 X2.5S200
G1 X0.6S0
G1 X1.8S200
G1 X0.7S0
G1 X1.8S200
G1 X1.2S0
G1 X1.8S200
G1 X1.9S0
G1 X2.4S200
G1 X2S0
G1 X0.5S200
G1 X2.5S0
G1 Y0.1
G1 X-2.5
G1 X-0.5S200
G1 X-2S0
G1 X-2.4S200
G1 X-1.9S0
G1 X-1.8S200
G1 X-1.2S0
G1 X-1.8S200
G1 X-0.7S0
G1 X-1.8S200
G1 X-0.6S0
G1 X-2.5S200
G1 X-0.6S0
G1 X-2.5S200
G1 X-0.7S0
G1 X-1.7S200
G1 X-1.4S0
G1 X-1.1S200
G1 X-0.6S0
G1 X-0.7S200
G1 X-0.6S0
G1 X-1.8S200
G1 X-0.7S0
G1 X-0.5S200
G1 X-2.5S0
G1 Y0.1
G1 X2.5
G1 X0.5S200
G1 X0.7S0
G1 X1.8S200
G1 X0.6S0
G1 X0.7S200
G1 X0.6S0
G1 X1.1S200
G1 X1.4S0
G1 X1.7S200
G1 X0.7S0
G1 X2.5S200
G1 X0.6S0
G1 X2.5S200
G1 X0.6S0
G1 X1.8S200
G1 X0.7S0
G1 X1.8S200
G1 X1.2S0
G1 X1.8S200
G1 X1.9S0
G1 X2.4S200
G1 X2S0
G1 X0.5S200
G1 X2.5S0
G1 Y0.1
G1 X-2.5
G1 X-0.5S200
G1 X-2S0
G1 X-2.4S200
G1 X-1.9S0
G1 X-1.8S200
G1 X-1.2S0
G1 X-1.8S200
G1 X-0.7S0
G1 X-1.8S200
G1 X-0.6S0
G1 X-2.5S200
G1 X-0.6S0
G1 X-2.5S200
G1 X-0.7S0
G1 X-1.7S200
G1 X-1.4S0
G1 X-1.1S200
G1 X-0.6S0
G1 X-0.7S200
G1 X-0.6S0
G1 X-1.8S200
G1 X-0.7S0
G1 X-0.5S200
G1 X-2.5S0
G1 Y0.1
G1 X2.5
G1 X0.5S200
G1 X0.7S0
G1 X1.8S200
G1 X0.6S0
G1 X0.7S200
G1 X1.8S0
G1 X1.9S200
G1 X1.2S0
G1 X1.3S200
G1 X3S0
G1 X3.6S200
G1 X6.3S0
G1 X0.6S200
G1 X0.7S0
G1 X3.6S200
G1 X2.5S0
G1 Y0.1
G1 X-2.5
G1 X-3.7S200
G1 X-0.6S0
G1 X-0.6S200
G1 X-6.3S0
G1 X-3.6S200
G1 X-3.1S0
G1 X-1.2S200
G1 X-1.2S0
G1 X-1.9S200
G1 X-1.8S0
G1 X-0.7S200
G1 X-0.6S0
G1 X-1.8S200
G1 X-0.7S0
G1 X-0.5S200
G1 X-2.5S0
G1 Y0.1
G1 X2.5
G1 X0.5S200
G1 X0.7S0
G1 X1.8S200
G1 X0.6S0
G1 X0.7S200
G1 X1.8S0
G1 X1.9S200
G1 X1.2S0
G1 X1.2S200
G1 X3.1S0
G1 X3.6S200
G1 X6.3S0
G1 X0.6S200
G1 X0.6S0
G1 X3.7S200
G1 X2.5S0
G1 Y0.1
G1 X-2.5
G1 X-3.7S200
G1 X-0.6S0
G1 X-0.6S200
G1 X-6.3S0
G1 X-3.6S200
G1 X-3.1S0
G1 X-1.2S200
G1 X-1.2S0
G1 X-1.9S200
G1 X-1.8S0
G1 X-0.7S200
G1 X-0.6S0
G1 X-1.8S200
G1 X-0.7S0
G1 X-0.5S200
G1 X-2.5S0
G1 Y0.1
G1 X2.5
G1 X0.5S200
G1 X0.7S0
G1 X1.8S200
G1 X0.6S0
G1 X0.7S200
G1 X1.8S0
G1 X1.9S200
G1 X1.2S0
G1 X1.2S200
G1 X3.1S0
G1 X3.6S200
G1 X6.3S0
G1 X0.6S200
G1 X0.6S0
G1 X3.7S200
G1 X2.5S0
G1 Y0.1
G1 X-2.5
G1 X-3.7S200
G1 X-0.6S0
G1 X-0.6S200
G1 X-6.3S0
G1 X-3.6S200
G1 X-3.1S0
G1 X-1.2S200
G1 X-1.2S0
G1 X-1.9S200
G1 X-1.8S0
G1 X-0.7S200
G1 X-0.6S0
G1 X-1.8S200
G1 X-0.7S0
G1 X-0.5S200
G1 X-2.5S0
G1 Y0.1
G1 X2.5
G1 X0.5S200
G1 X3.1S0
G1 X0.7S200
G1 X1.2S0
G1 X1.9S200
G1 X1.8S0
G1 X0.7S200
G1 X0.5S0
G1 X0.6S200
G1 X1.3S0
G1 X1.8S200
G1 X0.6S0
G1 X0.1S200
G1 X1.1S0
G1 X1.2S200
G1 X0.7S0
G1 X1.2S200
G1 X1.3S0
G1 X1.2S200
G1 X0.7S0
G1 X1.1S200
G1 X1.3S0
G1 X0.7S200
G1 X1.7S0
G1 X1.3S200
G1 X1.3S0
G1 X0.5S200
G1 X2.5S0
G1 Y0.1
G1 X-2.5
G1 X-0.5S200
G1 X-1.3S0
G1 X-1.2S200
G1 X-2S0
G1 X-0.5S200
G1 X-1.3S0
G1 X-1.1S200
G1 X-0.7S0
G1 X-1.2S200
G1 X-1.2S0
G1 X-1.3S200
G1 X-0.7S0
G1 X-1.1S200
G1 X-2S0
G1 X-1.7S200
G1 X-1.3S0
G1 X-0.6S200
G1 X-0.6S0
G1 X-0.6S200
G1 X-1.8S0
G1 X-1.9S200
G1 X-1.2S0
G1 X-0.7S200
G1 X-3.1S0
G1 X-0.5S200
G1 X-2.5S0
G1 Y0.1
G1 X2.5
G1 X0.5S200
G1 X3.1S0
G1 X0.7S200
G1 X1.2S0
G1 X1.9S200
G1 X1.8S0
G1 X0.6S200
G1 X0.6S0
G1 X0.6S200
G1 X1.3S0
G1 X1.7S200
G1 X2S0
G1 X1.1S200
G1 X0.7S0
G1 X1.3S200
G1 X1.2S0
G1 X1.2S200
G1 X0.7S0
G1 X1.1S200
G1 X1.3S0
G1 X0.5S200
G1 X2S0
G1 X1.2S200
G1 X1.3S0
G1 X0.5S200
G1 X2.5S0
G1 Y0.1
G1 X-2.5
G1 X-0.5S200
G1 X-1.3S0
G1 X-1.2S200
G1 X-2S0
G1 X-0.5S200
G1 X-1.3S0
G1 X-1.1S200
G1 X-0.7S0
G1 X-1.2S200
G1 X-1.2S0
G1 X-1.3S200
G1 X-0.7S0
G1 X-1.1S200
G1 X-2S0
G1 X-1.7S200
G1 X-1.3S0
G1 X-0.6S200
G1 X-0.6S0
G1 X-0.6S200
G1 X-1.8S0
G1 X-1.9S200
G1 X-1.2S0
G1 X-0.7S200
G1 X-3.1S0
G1 X-0.5S200
G1 X-2.5S0
G1 Y0.1
G1 X2.5
G1 X0.5S200
G1 X3.1S0
G1 X0.7S200
G1 X1.2S0
G1 X1.9S200
G1 X1.8S0
G1 X0.6S200
G1 X0.6S0
G1 X0.6S200
G1 X1.3S0
G1 X1.7S200
G1 X2S0
G1 X1.1S200
G1 X0.7S0
G1 X1.3S200
G1 X1.2S0
G1 X1.2S200
G1 X0.7S0
G1 X1.1S200
G1 X1.3S0
G1 X0.5S200
G1 X2S0
G1 X1.2S200
G1 X1.3S0
G1 X0.5S200
G1 X2.5S0
G1 Y0.1
G1 X-2.5
G1 X-0.5S200
G1 X-1.3S0
G1 X-1.2S200
G1 X-2S0
G1 X-0.5S200
G1 X-1.3S0
G1 X-1.1S200
G1 X-0.7S0
G1 X-1.2S200
G1 X-1.2S0
G1 X-1.3S200
G1 X-0.7S0
G1 X-1.1S200
G1 X-2S0
G1 X-1.7S200
G1 X-1.3S0
G1 X-0.6S200
G1 X-0.6S0
G1 X-0.6S200
G1 X-1.8S0
G1 X-1.9S200
G1 X-1.2S0
G1 X-0.7S200
G1 X-3.1S0
G1 X-0.5S200
G1 X-2.5S0
G1 Y0.1
G1 X2.5
G1 X0.5S200
G1 X3.1S0
G1 X0.7S200
G1 X1.2S0
G1 X1.9S200
G1 X1.8S0
G1 X0.7S200
G1 X0.5S0
G1 X0.6S200
G1 X1.3S0
G1 X1.7S200
G1 X2S0
G1 X1.1S200
G1 X0.7S0
G1 X1.3S200
G1 X1.2S0
G1 X1.2S200
G1 X0.6S0
G1 X1.2S200
G1 X1.3S0
G1 X0.7S200
G1 X1.8S0
G1 X1.2S200
G1 X1.2S0
G1 X0.6S200
G1 X2.5S0
G1 Y0.1
G1 X-2.5
G1 X-1.2S200
G1 X-0.6S0
G1 X-1.2S200
G1 X-0.6S0
G1 X-0.6S200
G1 X-0.8S0
G1 X-0.5S200
G1 X-1.8S0
G1 X-1.3S200
G1 X-0.7S0
G1 X-1.7S200
G1 X-0.6S0
G1 X-0.7S200
G1 X-0.7S0
G1 X-1.1S200
G1 X-0.6S0
G1 X-0.6S200
G1 X-0.8S0
G1 X-0.5S200
G1 X-3.1S0
G1 X-1.2S200
G1 X-0.7S0
G1 X-1.8S200
G1 X-1.2S0
G1 X-0.6S200
G1 X-0.6S0
G1 X-4.3S200
G1 X-2.5S0
G1 Y0.1
G1 X2.5
G1 X4.3S200
G1 X0.6S0
G1 X0.6S200
G1 X1.2S0
G1 X1.8S200
G1 X0.7S0
G1 X1.2S200
G1 X3.1S0
G1 X0.5S200
G1 X0.8S0
G1 X0.6S200
G1 X0.6S0
G1 X1.1S200
G1 X0.7S0
G1 X0.7S200
G1 X0.6S0
G1 X1.7S200
G1 X0.7S0
G1 X1.3S200
G1 X1.8S0
G1 X0.5S200
G1 X0.8S0
G1 X0.6S200
G1 X0.6S0
G1 X1.2S200
G1 X0.6S0
G1 X1.2S200
G1 X2.5S0
G1 Y0.1
G1 X-2.5
G1 X-1.2S200
G1 X-0.6S0
G1 X-1.2S200
G1 X-0.6S0
G1 X-0.6S200
G1 X-0.8S0
G1 X-0.5S200
G1 X-1.8S0
G1 X-1.3S200
G1 X-0.7S0
G1 X-1.7S200
G1 X-0.6S0
G1 X-0.7S200
G1 X-0.7S0
G1 X-1.1S200
G1 X-0.6S0
G1 X-0.6S200
G1 X-0.8S0
G1 X-0.5S200
G1 X-3.1S0
G1 X-1.2S200
G1 X-0.7S0
G1 X-1.8S200
G1 X-1.2S0
G1 X-0.6S200
G1 X-0.6S0
G1 X-4.3S200
G1 X-2.5S0
G1 Y0.1
G1 X2.5
G1 X4.3S200
G1 X0.6S0
G1 X0.6S200
G1 X1.2S0
G1 X1.8S200
G1 X0.7S0
G1 X1.2S200
G1 X3.1S0
G1 X0.5S200
G1 X0.8S0
G1 X0.6S200
G1 X0.6S0
G1 X1.1S200
G1 X0.7S0
G1 X0.7S200
G1 X0.6S0
G1 X1.7S200
G1 X0.7S0
G1 X1.3S200
G1 X1.8S0
G1 X0.5S200
G1 X0.8S0
G1 X0.6S200
G1 X0.6S0
G1 X1.2S200
G1 X0.6S0
G1 X1.2S200
G1 X2.5S0
G1 Y0.1
G1 X-2.5
G1 X-1.2S200
G1 X-0.6S0
G1 X-1.2S200
G1 X-0.6S0
G1 X-0.6S200
G1 X-0.8S0
G1 X-0.5S200
G1 X-1.8S0
G1 X-1.3S200
G1 X-0.7S0
G1 X-1.7S200
G1 X-0.6S0
G1 X-0.7S200
G1 X-0.7S0
G1 X-1.1S200
G1 X-0.6S0
G1 X-0.6S200
G1 X-0.8S0
G1 X-0.5S200
G1 X-3.1S0
G1 X-1.2S200
G1 X-0.7S0
G1 X-1.8S200
G1 X-1.2S0
G1 X-0.6S200
G1 X-0.6S0
G1 X-4.3S200
G1 X-2.5S0
G1 Y0.1
G1 X2.5
G1 X4.1S200
G1 X0.8S0
G1 X0.6S200
G1 X1.2S0
G1 X1.8S200
G1 X0.7S0
G1 X1.2S200
G1 X3.1S0
G1 X0.5S200
G1 X0.8S0
G1 X0.6S200
G1 X0.6S0
G1 X1.1S200
G1 X0.7S0
G1 X0.7S200
G1 X0.6S0
G1 X1.7S200
G1 X0.7S0
G1 X1.3S200
G1 X1.8S0
G1 X0.7S200
G1 X0.6S0
G1 X0.6S200
G1 X0.6S0
G1 X1.2S200
G1 X0.6S0
G1 X1.2S200
G1 X2.5S0
G1 Y0.1
G1 X-2.5
G1 X-0.5S200
G1 X-0.8S0
G1 X-1.7S200
G1 X-2S0
G1 X-1.7S200
G1 X-2.6S0
G1 X-0.5S200
G1 X-1.8S0
G1 X-0.7S200
G1 X-0.7S0
G1 X-1.1S200
G1 X-2S0
G1 X-1.7S200
G1 X-2.5S0
G1 X-0.6S200
G1 X-1.2S0
G1 X-0.7S200
G1 X-1.3S0
G1 X-1.1S200
G1 X-2.5S0
G1 Y0.1
G1 X2.5
G1 X1.1S200
G1 X1.4S0
G1 X0.6S200
G1 X1.2S0
G1 X0.6S200
G1 X2.5S0
G1 X1.7S200
G1 X2S0
G1 X1.1S200
G1 X0.7S0
G1 X0.7S200
G1 X1.8S0
G1 X0.5S200
G1 X2.6S0
G1 X1.7S200
G1 X2S0
G1 X1.7S200
G1 X0.8S0
G1 X0.5S200
G1 X2.5S0
G1 Y0.1
G1 X-2.5
G1 X-0.5S200
G1 X-0.8S0
G1 X-1.7S200
G1 X-2S0
G1 X-1.7S200
G1 X-2.6S0
G1 X-0.5S200
G1 X-1.8S0
G1 X-0.7S200
G1 X-0.7S0
G1 X-1.1S200
G1 X-2S0
G1 X-1.7S200
G1 X-2.5S0
G1 X-0.6S200
G1 X-1.2S0
G1 X-0.6S200
G1 X-1.4S0
G1 X-1.1S200
G1 X-2.5S0
G1 Y0.1
G1 X2.5
G1 X1.1S200
G1 X1.4S0
G1 X0.6S200
G1 X1.2S0
G1 X0.6S200
G1 X2.5S0
G1 X1.7S200
G1 X2S0
G1 X1.1S200
G1 X0.7S0
G1 X0.7S200
G1 X1.8S0
G1 X0.5S200
G1 X2.6S0
G1 X1.7S200
G1 X2S0
G1 X1.7S200
G1 X0.8S0
G1 X0.5S200
G1 X2.5S0
G1 Y0.1
G1 X-2.5
G1 X-0.5S200
G1 X-0.8S0
G1 X-1.7S200
G1 X-2S0
G1 X-1.7S200
G1 X-2.6S0
G1 X-0.5S200
G1 X-1.8S0
G1 X-0.7S200
G1 X-0.7S0
G1 X-1.1S200
G1 X-2S0
G1 X-1.7S200
G1 X-2.5S0
G1 X-0.6S200
G1 X-1.2S0
G1 X-0.6S200
G1 X-1.4S0
G1 X-1.1S200
G1 X-2.5S0
G1 Y0.1
G1 X2.5
G1 X1.1S200
G1 X1.3S0
G1 X0.7S200
G1 X1.2S0
G1 X0.6S200
G1 X2.5S0
G1 X1.8S200
G1 X1.9S0
G1 X1.1S200
G1 X0.7S0
G1 X0.7S200
G1 X1.8S0
G1 X0.5S200
G1 X2.6S0
G1 X1.9S200
G1 X1.8S0
G1 X1.7S200
G1 X0.8S0
G1 X0.5S200
G1 X2.5S0
G1 X-0.5Y0.1
G1 X-2.5
G1 X-0.7S200
G1 X-1.3S0
G1 X-3S200
G1 X-2.5S0
G1 X-1.2S200
G1 X-0.6S0
G1 X-0.6S200
G1 X-1.9S0
G1 X-5.5S200
G1 X-3.2S0
G1 X-0.5S200
G1 X-0.6S0
G1 X-0.6S200
G1 X-0.8S0
G1 X-0.5S200
G1 X-1.8S0
G1 X-0.7S200
G1 X-1.8S0
G1 X-1.8S200
G1 X-2.5S0
G1 Y0.1
G1 X2.5
G1 X1.8S200
G1 X1.8S0
G1 X0.7S200
G1 X1.8S0
G1 X0.5S200
G1 X0.8S0
G1 X0.6S200
G1 X0.6S0
G1 X0.5S200
G1 X3.2S0
G1 X5.5S200
G1 X1.9S0
G1 X0.6S200
G1 X0.6S0
G1 X1.2S200
G1 X2.5S0
G1 X3S200
G1 X1.3S0
G1 X0.7S200
G1 X2.5S0
G1 Y0.1
G1 X-2.5
G1 X-0.7S200
G1 X-1.3S0
G1 X-3S200
G1 X-2.5S0
G1 X-1.2S200
G1 X-0.6S0
G1 X-0.6S200
G1 X-1.9S0
G1 X-5.5S200
G1 X-3.2S0
G1 X-0.5S200
G1 X-0.6S0
G1 X-0.6S200
G1 X-0.8S0
G1 X-0.5S200
G1 X-1.8S0
G1 X-0.7S200
G1 X-1.8S0
G1 X-1.8S200
G1 X-2.5S0
G1 Y0.1
G1 X2.5
G1 X1.8S200
G1 X1.8S0
G1 X0.7S200
G1 X1.8S0
G1 X0.5S200
G1 X0.8S0
G1 X0.6S200
G1 X0.6S0
G1 X0.5S200
G1 X3.2S0
G1 X5.5S200
G1 X1.9S0
G1 X0.6S200
G1 X0.6S0
G1 X1.2S200
G1 X2.5S0
G1 X3S200
G1 X1.3S0
G1 X0.7S200
G1 X2.5S0
G1 Y0.1
G1 X-2.5
G1 X-0.7S200
G1 X-1.3S0
G1 X-3S200
G1 X-2.5S0
G1 X-1.2S200
G1 X-0.6S0
G1 X-0.6S200
G1 X-1.9S0
G1 X-5.5S200
G1 X-3.2S0
G1 X-0.5S200
G1 X-0.6S0
G1 X-0.6S200
G1 X-0.8S0
G1 X-0.5S200
G1 X-1.8S0
G1 X-0.7S200
G1 X-1.8S0
G1 X-1.8S200
G1 X-2.5S0
G1 Y0.1
G1 X2.5
G1 X1.8S200
G1 X1.8S0
G1 X0.7S200
G1 X1.8S0
G1 X0.5S200
G1 X0.7S0
G1 X0.7S200
G1 X0.6S0
G1 X0.5S200
G1 X3.2S0
G1 X5.5S200
G1 X1.9S0
G1 X0.6S200
G1 X0.6S0
G1 X1.2S200
G1 X2.5S0
G1 X3S200
G1 X1.3S0
G1 X0.7S200
G1 X2.5S0
G1 Y0.1
G1 X-2.5
G1 X-1.3S200
G1 X-0.7S0
G1 X-1.1S200
G1 X-2.5S0
G1 X-1.2S200
G1 X-0.7S0
G1 X-1.2S200
G1 X-0.6S0
G1 X-1.8S200
G1 X-1.4S0
G1 X-0.5S200
G1 X-1.2S0
G1 X-1.3S200
G1 X-1.2S0
G1 X-0.6S200
G1 X-1.3S0
G1 X-0.6S200
G1 X-1.9S0
G1 X-3S200
G1 X-0.6S0
G1 X-0.7S200
G1 X-1.8S0
G1 X-1.9S200
G1 X-2.5S0
G1 Y0.1
G1 X2.5
G1 X1.9S200
G1 X1.9S0
G1 X0.6S200
G1 X0.6S0
G1 X3S200
G1 X1.9S0
G1 X0.6S200
G1 X1.3S0
G1 X0.6S200
G1 X1.2S0
G1 X1.3S200
G1 X1.2S0
G1 X0.5S200
G1 X1.4S0
G1 X1.8S200
G1 X0.6S0
G1 X1.2S200
G1 X0.7S0
G1 X1.2S200
G1 X2.5S0
G1 X1.1S200
G1 X0.7S0
G1 X1.3S200
G1 X2.5S0
G1 Y0.1
G1 X-2.5
G1 X-1.3S200
G1 X-0.7S0
G1 X-1.1S200
G1 X-2.5S0
G1 X-1.2S200
G1 X-0.7S0
G1 X-1.2S200
G1 X-0.6S0
G1 X-1.8S200
G1 X-1.4S0
G1 X-0.5S200
G1 X-1.2S0
G1 X-1.3S200
G1 X-1.2S0
G1 X-0.6S200
G1 X-1.3S0
G1 X-0.6S200
G1 X-1.9S0
G1 X-3S200
G1 X-0.6S0
G1 X-0.6S200
G1 X-1.9S0
G1 X-1.9S200
G1 X-2.5S0
G1 Y0.1
G1 X2.5
G1 X1.9S200
G1 X1.9S0
G1 X0.6S200
G1 X0.6S0
G1 X3S200
G1 X1.9S0
G1 X0.6S200
G1 X1.3S0
G1 X0.6S200
G1 X1.2S0
G1 X1.3S200
G1 X1.2S0
G1 X0.5S200
G1 X1.4S0
G1 X1.8S200
G1 X0.6S0
G1 X1.2S200
G1 X0.7S0
G1 X1.2S200
G1 X2.5S0
G1 X1.1S200
G1 X0.7S0
G1 X1.3S200
G1 X2.5S0
G1 Y0.1
G1 X-2.5
G1 X-1.3S200
G1 X-0.7S0
G1 X-1.1S200
G1 X-2.5S0
G1 X-1.2S200
G1 X-0.7S0
G1 X-1.2S200
G1 X-0.6S0
G1 X-1.8S200
G1 X-1.4S0
G1 X-0.5S200
G1 X-1.2S0
G1 X-1.3S200
G1 X-1.2S0
G1 X-0.6S200
G1 X-1.3S0
G1 X-0.6S200
G1 X-1.9S0
G1 X-3S200
G1 X-0.6S0
G1 X-0.6S200
G1 X-1.9S0
G1 X-1.9S200
G1 X-2.5S0
G1 Y0.1
G1 X2.5
G1 X1.9S200
G1 X1.9S0
G1 X0.6S200
G1 X0.6S0
G1 X3S200
G1 X1.9S0
G1 X0.6S200
G1 X1.3S0
G1 X0.6S200
G1 X1.2S0
G1 X1.3S200
G1 X1.2S0
G1 X0.5S200
G1 X1.4S0
G1 X1.8S200
G1 X0.6S0
G1 X1.2S200
G1 X0.7S0
G1 X1.2S200
G1 X2.5S0
G1 X1.1S200
G1 X0.7S0
G1 X1.3S200
G1 X2.5S0
G1 Y0.1
G1 X-2.5
G1 X-0.7S200
G1 X-3.1S0
G1 X-0.5S200
G1 X-1.3S0
G1 X-1.2S200
G1 X-4.3S0
G1 X-1.9S200
G1 X-0.6S0
G1 X-0.6S200
G1 X-0.6S0
G1 X-1.3S200
G1 X-1.2S0
G1 X-0.6S200
G1 X-1.9S0
G1 X-2.5S200
G1 X-0.5S0
G1 X-0.7S200
G1 X-0.6S0
G1 X-0.6S200
G1 X-0.6S0
G1 X-1.3S200
G1 X-1.9S0
G1 X-0.6S200
G1 X-2.5S0
G1 Y0.1
G1 X2.5
G1 X0.6S200
G1 X1.9S0
G1 X1.3S200
G1 X0.6S0
G1 X0.6S200
G1 X0.6S0
G1 X0.5S200
G1 X0.8S0
G1 X2.4S200
G1 X1.9S0
G1 X0.6S200
G1 X1.2S0
G1 X1.3S200
G1 X0.6S0
G1 X0.6S200
G1 X0.6S0
G1 X1.9S200
G1 X4.3S0
G1 X1.2S200
G1 X1.2S0
G1 X0.6S200
G1 X3.1S0
G1 X0.7S200
G1 X2.5S0
G1 Y0.1
G1 X-2.5
G1 X-0.7S200
G1 X-3.1S0
G1 X-0.6S200
G1 X-1.2S0
G1 X-1.2S200
G1 X-4.3S0
G1 X-1.9S200
G1 X-0.6S0
G1 X-0.6S200
G1 X-0.6S0
G1 X-1.3S200
G1 X-1.2S0
G1 X-0.6S200
G1 X-1.9S0
G1 X-2.4S200
G1 X-0.8S0
G1 X-0.5S200
G1 X-0.6S0
G1 X-0.6S200
G1 X-0.6S0
G1 X-1.3S200
G1 X-1.9S0
G1 X-0.6S200
G1 X-2.5S0
G1 Y0.1
G1 X2.5
G1 X0.6S200
G1 X1.9S0
G1 X1.3S200
G1 X0.6S0
G1 X0.6S200
G1 X0.6S0
G1 X0.5S200
G1 X0.8S0
G1 X2.4S200
G1 X1.9S0
G1 X0.6S200
G1 X1.2S0
G1 X1.3S200
G1 X0.6S0
G1 X0.6S200
G1 X0.6S0
G1 X1.9S200
G1 X4.3S0
G1 X1.2S200
G1 X1.2S0
G1 X0.6S200
G1 X3.1S0
G1 X0.7S200
G1 X2.5S0
G1 Y0.1
G1 X-2.5
G1 X-0.7S200
G1 X-3.1S0
G1 X-0.6S200
G1 X-1.2S0
G1 X-1.2S200
G1 X-4.3S0
G1 X-1.9S200
G1 X-0.6S0
G1 X-0.6S200
G1 X-0.6S0
G1 X-1.3S200
G1 X-1.2S0
G1 X-0.6S200
G1 X-1.9S0
G1 X-2.4S200
G1 X-0.8S0
G1 X-0.5S200
G1 X-0.6S0
G1 X-0.6S200
G1 X-0.6S0
G1 X-1.3S200
G1 X-1.9S0
G1 X-0.6S200
G1 X-2.5S0
G1 Y0.1
G1 X2.5
G1 X0.6S200
G1 X1.9S0
G1 X1.3S200
G1 X0.6S0
G1 X0.6S200
G1 X0.6S0
G1 X0.5S200
G1 X0.8S0
G1 X2.4S200
G1 X1.9S0
G1 X0.6S200
G1 X1.2S0
G1 X1.3S200
G1 X0.6S0
G1 X0.6S200
G1 X0.6S0
G1 X1.9S200
G1 X4.3S0
G1 X1.2S200
G1 X1.2S0
G1 X0.6S200
G1 X3.1S0
G1 X0.7S200
G1 X2.5S0
G1 X0.5Y0.1
G1 X-2.5
G1 X-3S200
G1 X-3.1S0
G1 X-1.8S200
G1 X-1.4S0
G1 X-1.7S200
G1 X-1.2S0
G1 X-0.1S200
G1 X-0.5S0
G1 X-0.1S200
G1 X-1.2S0
G1 X-1.3S200
G1 X-3.7S0
G1 X-1.2S200
G1 X-0.5S0
G1 X-0.8S200
G1 X-0.5S0
G1 X-0.7S200
G1 X-0.7S0
G1 X-0.5S200
G1 X-3.7S0
G1 X-0.6S200
G1 X-1.3S0
G1 X-0.5S200
G1 X-2.5S0
G1 Y0.1
G1 X2.5
G1 X0.5S200
G1 X1.3S0
G1 X0.6S200
G1 X3.7S0
G1 X0.5S200
G1 X0.8S0
G1 X0.6S200
G1 X0.6S0
G1 X0.5S200
G1 X0.7S0
G1 X1.2S200
G1 X3.8S0
G1 X1.2S200
G1 X3.1S0
G1 X1.7S200
G1 X1.4S0
G1 X1.8S200
G1 X3.1S0
G1 X3S200
G1 X2.5S0
G1 Y0.1
G1 X-2.5
G1 X-3S200
G1 X-3.1S0
G1 X-1.8S200
G1 X-1.4S0
G1 X-1.7S200
G1 X-3.1S0
G1 X-1.2S200
G1 X-3.8S0
G1 X-1.2S200
G1 X-0.7S0
G1 X-0.5S200
G1 X-0.6S0
G1 X-0.6S200
G1 X-0.8S0
G1 X-0.5S200
G1 X-3.7S0
G1 X-0.6S200
G1 X-1.3S0
G1 X-0.5S200
G1 X-2.5S0
G1 Y0.1
G1 X2.5
G1 X0.5S200
G1 X1.3S0
G1 X0.6S200
G1 X3.7S0
G1 X0.5S200
G1 X0.8S0
G1 X0.6S200
G1 X0.6S0
G1 X0.5S200
G1 X0.7S0
G1 X1.2S200
G1 X3.8S0
G1 X1.2S200
G1 X3.1S0
G1 X1.7S200
G1 X1.4S0
G1 X1.8S200
G1 X3.1S0
G1 X3S200
G1 X2.5S0
G1 Y0.1
G1 X-2.5
G1 X-3S200
G1 X-3.1S0
G1 X-1.8S200
G1 X-1.4S0
G1 X-1.7S200
G1 X-3.1S0
G1 X-1.2S200
G1 X-3.8S0
G1 X-1.2S200
G1 X-0.7S0
G1 X-0.5S200
G1 X-0.6S0
G1 X-0.6S200
G1 X-0.8S0
G1 X-0.5S200
G1 X-3.7S0
G1 X-0.6S200
G1 X-1.3S0
G1 X-0.5S200
G1 X-2.5S0
G1 Y0.1
G1 X2.5
G1 X0.5S200
G1 X1.3S0
G1 X0.6S200
G1 X3.7S0
G1 X0.5S200
G1 X0.8S0
G1 X0.6S200
G1 X0.6S0
G1 X0.5S200
G1 X0.7S0
G1 X1.2S200
G1 X3.8S0
G1 X1.2S200
G1 X3.1S0
G1 X1.7S200
G1 X1.4S0
G1 X1.8S200
G1 X3.1S0
G1 X3S200
G1 X2.5S0
G1 Y0.1
G1 X-2.5
G1 X-3S200
G1 X-3.1S0
G1 X-1.8S200
G1 X-1.4S0
G1 X-1.7S200
G1 X-3.1S0
G1 X-1.3S200
G1 X-3.7S0
G1 X-1.2S200
G1 X-0.7S0
G1 X-0.5S200
G1 X-0.6S0
G1 X-0.7S200
G1 X-0.7S0
G1 X-0.5S200
G1 X-3.7S0
G1 X-0.6S200
G1 X-1.3S0
G1 X-0.5S200
G1 X-2.5S0
G1 Y0.1
G1 X2.5
G1 X1.1S200
G1 X1.3S0
G1 X0.6S200
G1 X0.6S0
G1 X2.4S200
G1 X0.7S0
G1 X0.7S200
G1 X0.6S0
G1 X1.1S200
G1 X2.6S0
G1 X0.6S200
G1 X1.2S0
G1 X0.5S200
G1 X0.8S0
G1 X1.2S200
G1 X0.6S0
G1 X0.5S200
G1 X0.7S0
G1 X1.3S200
G1 X3.1S0
G1 X1.1S200
G1 X0.7S0
G1 X1.1S200
G1 X0.8S0
G1 X1.7S200
G1 X0.7S0
G1 X0.5S200
G1 X0.8S0
G1 X0.5S200
G1 X2.5S0
G1 Y0.1
G1 X-2.5
G1 X-0.5S200
G1 X-0.8S0
G1 X-0.5S200
G1 X-0.7S0
G1 X-1.7S200
G1 X-0.8S0
G1 X-1.1S200
G1 X-0.7S0
G1 X-1.1S200
G1 X-3.1S0
G1 X-1.3S200
G1 X-0.7S0
G1 X-0.5S200
G1 X-0.6S0
G1 X-1.2S200
G1 X-0.8S0
G1 X-0.5S200
G1 X-1.2S0
G1 X-0.6S200
G1 X-2.6S0
G1 X-1.1S200
G1 X-0.6S0
G1 X-0.7S200
G1 X-0.7S0
G1 X-2.4S200
G1 X-0.6S0
G1 X-0.6S200
G1 X-1.3S0
G1 X-1.1S200
G1 X-2.5S0
G1 Y0.1
G1 X2.5
G1 X1.1S200
G1 X1.3S0
G1 X0.6S200
G1 X0.6S0
G1 X2.4S200
G1 X0.7S0
G1 X0.7S200
G1 X0.6S0
G1 X1.1S200
G1 X2.6S0
G1 X0.6S200
G1 X1.2S0
G1 X0.5S200
G1 X0.8S0
G1 X1.2S200
G1 X0.6S0
G1 X0.5S200
G1 X0.7S0
G1 X1.3S200
G1 X3.1S0
G1 X1.1S200
G1 X0.7S0
G1 X1.1S200
G1 X0.8S0
G1 X1.7S200
G1 X0.7S0
G1 X0.5S200
G1 X0.8S0
G1 X0.5S200
G1 X2.5S0
G1 Y0.1
G1 X-2.5
G1 X-0.5S200
G1 X-0.8S0
G1 X-0.5S200
G1 X-0.7S0
G1 X-1.7S200
G1 X-0.8S0
G1 X-1.1S200
G1 X-0.7S0
G1 X-1.1S200
G1 X-3.1S0
G1 X-1.3S200
G1 X-0.7S0
G1 X-0.5S200
G1 X-0.6S0
G1 X-1.2S200
G1 X-0.8S0
G1 X-0.5S200
G1 X-1.2S0
G1 X-0.6S200
G1 X-2.6S0
G1 X-1.1S200
G1 X-0.6S0
G1 X-0.7S200
G1 X-0.7S0
G1 X-2.4S200
G1 X-0.6S0
G1 X-0.6S200
G1 X-1.3S0
G1 X-1.1S200
G1 X-2.5S0
G1 Y0.1
G1 X2.5
G1 X1.1S200
G1 X1.3S0
G1 X0.6S200
G1 X0.6S0
G1 X2.4S200
G1 X0.7S0
G1 X0.7S200
G1 X0.6S0
G1 X1.1S200
G1 X2.6S0
G1 X0.6S200
G1 X1.2S0
G1 X0.5S200
G1 X0.8S0
G1 X1.2S200
G1 X0.6S0
G1 X0.5S200
G1 X0.7S0
G1 X1.3S200
G1 X3.1S0
G1 X1.1S200
G1 X0.7S0
G1 X1.1S200
G1 X0.8S0
G1 X1.7S200
G1 X0.7S0
G1 X0.5S200
G1 X0.8S0
G1 X0.5S200
G1 X2.5S0
G1 Y0.1
G1 X-2.5
G1 X-0.5S200
G1 X-0.6S0
G1 X-0.7S200
G1 X-0.7S0
G1 X-1.7S200
G1 X-0.8S0
G1 X-1.1S200
G1 X-0.7S0
G1 X-1.2S200
G1 X-3S0
G1 X-1.3S200
G1 X-0.7S0
G1 X-0.5S200
G1 X-0.6S0
G1 X-1.3S200
G1 X-0.7S0
G1 X-0.5S200
G1 X-1.2S0
G1 X-0.6S200
G1 X-2.6S0
G1 X-1.1S200
G1 X-0.6S0
G1 X-0.7S200
G1 X-0.7S0
G1 X-2.4S200
G1 X-0.6S0
G1 X-0.6S200
G1 X-1.3S0
G1 X-1.1S200
G1 X-2.5S0
G1 X1.2Y0.1
G1 X2.5
G1 X0.6S200
G1 X0.6S0
G1 X1.1S200
G1 X2S0
G1 X0.5S200
G1 X0.7S0
G1 X0.7S200
G1 X1.8S0
G1 X1.2S200
G1 X0.7S0
G1 X0.5S200
G1 X1.3S0
G1 X0.6S200
G1 X0.6S0
G1 X1.3S200
G1 X1.8S0
G1 X0.6S200
G1 X0.7S0
G1 X0.6S200
G1 X0.6S0
G1 X0.6S200
G1 X0.6S0
G1 X2.4S200
G1 X0.7S0
G1 X0.6S200
G1 X1.3S0
G1 X1.2S200
G1 X1.2S0
G1 X1.8S200
G1 X2.5S0
G1 Y0.1
G1 X-2.5
G1 X-1.8S200
G1 X-1.2S0
G1 X-1.2S200
G1 X-1.3S0
G1 X-0.6S200
G1 X-0.7S0
G1 X-2.4S200
G1 X-0.6S0
G1 X-0.6S200
G1 X-0.6S0
G1 X-0.6S200
G1 X-0.7S0
G1 X-0.6S200
G1 X-1.8S0
G1 X-1.3S200
G1 X-0.6S0
G1 X-0.6S200
G1 X-1.3S0
G1 X-0.5S200
G1 X-0.7S0
G1 X-1.2S200
G1 X-1.8S0
G1 X-0.7S200
G1 X-0.7S0
G1 X-0.5S200
G1 X-2S0
G1 X-1.1S200
G1 X-0.6S0
G1 X-0.6S200
G1 X-2.5S0
G1 Y0.1
G1 X2.5
G1 X0.6S200
G1 X0.6S0
G1 X1.1S200
G1 X2S0
G1 X0.5S200
G1 X0.7S0
G1 X0.7S200
G1 X1.8S0
G1 X1.2S200
G1 X0.7S0
G1 X0.5S200
G1 X1.3S0
G1 X0.6S200
G1 X0.6S0
G1 X1.3S200
G1 X1.8S0
G1 X0.6S200
G1 X0.7S0
G1 X0.6S200
G1 X0.6S0
G1 X0.6S200
G1 X0.6S0
G1 X2.4S200
G1 X0.7S0
G1 X0.6S200
G1 X1.3S0
G1 X1.2S200
G1 X1.2S0
G1 X1.8S200
G1 X2.5S0
G1 Y0.1
G1 X-2.5
G1 X-1.8S200
G1 X-1.2S0
G1 X-1.2S200
G1 X-1.3S0
G1 X-0.6S200
G1 X-0.7S0
G1 X-2.4S200
G1 X-0.6S0
G1 X-0.6S200
G1 X-0.6S0
G1 X-0.6S200
G1 X-0.7S0
G1 X-0.6S200
G1 X-1.8S0
G1 X-1.3S200
G1 X-0.6S0
G1 X-0.6S200
G1 X-1.3S0
G1 X-0.5S200
G1 X-0.7S0
G1 X-1.2S200
G1 X-1.8S0
G1 X-0.7S200
G1 X-0.7S0
G1 X-0.5S200
G1 X-2S0
G1 X-1.1S200
G1 X-0.6S0
G1 X-0.6S200
G1 X-2.5S0
G1 Y0.1
G1 X2.5
G1 X0.6S200
G1 X0.6S0
G1 X1.1S200
G1 X2S0
G1 X0.5S200
G1 X0.7S0
G1 X0.7S200
G1 X1.8S0
G1 X1.2S200
G1 X0.7S0
G1 X0.5S200
G1 X1.3S0
G1 X0.6S200
G1 X0.6S0
G1 X1.3S200
G1 X1.8S0
G1 X0.6S200
G1 X0.7S0
G1 X0.6S200
G1 X0.6S0
G1 X0.6S200
G1 X0.6S0
G1 X2.4S200
G1 X0.7S0
G1 X0.6S200
G1 X1.3S0
G1 X1.2S200
G1 X1.2S0
G1 X1.8S200
G1 X2.5S0
G1 Y0.1
G1 X-2.5
G1 X-1.8S200
G1 X-1.2S0
G1 X-1.2S200
G1 X-1.3S0
G1 X-0.6S200
G1 X-0.7S0
G1 X-2.4S200
G1 X-0.6S0
G1 X-0.6S200
G1 X-0.6S0
G1 X-0.6S200
G1 X-0.7S0
G1 X-0.6S200
G1 X-1.8S0
G1 X-1.3S200
G1 X-0.6S0
G1 X-0.6S200
G1 X-1.3S0
G1 X-0.5S200
G1 X-0.7S0
G1 X-1.2S200
G1 X-1.8S0
G1 X-0.7S200
G1 X-0.7S0
G1 X-0.5S200
G1 X-2S0
G1 X-1.1S200
G1 X-0.6S0
G1 X-0.6S200
G1 X-2.5S0
G1 X-1.2Y0.1
G1 X2.5
G1 X0.5S200
G1 X0.7S0
G1 X0.6S200
G1 X1.8S0
G1 X1.3S200
G1 X1.8S0
G1 X1.8S200
G1 X1.3S0
G1 X0.6S200
G1 X1.3S0
G1 X0.6S200
G1 X0.6S0
G1 X0.6S200
G1 X1.3S0
G1 X0.6S200
G1 X1.2S0
G1 X1.2S200
G1 X0.7S0
G1 X0.6S200
G1 X0.6S0
G1 X0.6S200
G1 X0.6S0
G1 X1.2S200
G1 X0.7S0
G1 X0.5S200
G1 X0.7S0
G1 X1.1S200
G1 X2S0
G1 X0.5S200
G1 X2.5S0
G1 Y0.1
G1 X-2.5
G1 X-0.5S200
G1 X-2S0
G1 X-1.1S200
G1 X-0.7S0
G1 X-0.5S200
G1 X-0.7S0
G1 X-1.2S200
G1 X-0.6S0
G1 X-0.6S200
G1 X-0.6S0
G1 X-0.6S200
G1 X-0.7S0
G1 X-1.2S200
G1 X-1.2S0
G1 X-0.6S200
G1 X-1.3S0
G1 X-0.6S200
G1 X-0.6S0
G1 X-0.6S200
G1 X-1.3S0
G1 X-0.6S200
G1 X-1.3S0
G1 X-1.8S200
G1 X-1.8S0
G1 X-1.3S200
G1 X-1.8S0
G1 X-0.6S200
G1 X-0.7S0
G1 X-0.5S200
G1 X-2.5S0
G1 Y0.1
G1 X2.5
G1 X0.5S200
G1 X0.7S0
G1 X0.6S200
G1 X1.8S0
G1 X1.3S200
G1 X1.8S0
G1 X1.8S200
G1 X1.3S0
G1 X0.6S200
G1 X1.3S0
G1 X0.6S200
G1 X0.6S0
G1 X0.6S200
G1 X1.3S0
G1 X0.6S200
G1 X1.2S0
G1 X1.2S200
G1 X0.7S0
G1 X0.6S200
G1 X0.6S0
G1 X0.6S200
G1 X0.6S0
G1 X1.2S200
G1 X0.7S0
G1 X0.5S200
G1 X0.7S0
G1 X1.1S200
G1 X2S0
G1 X0.5S200
G1 X2.5S0
G1 Y0.1
G1 X-2.5
G1 X-0.5S200
G1 X-2S0
G1 X-1.1S200
G1 X-0.7S0
G1 X-0.5S200
G1 X-0.7S0
G1 X-1.2S200
G1 X-0.6S0
G1 X-0.6S200
G1 X-0.6S0
G1 X-0.6S200
G1 X-0.7S0
G1 X-1.2S200
G1 X-1.2S0
G1 X-0.6S200
G1 X-1.3S0
G1 X-0.6S200
G1 X-0.6S0
G1 X-0.6S200
G1 X-1.3S0
G1 X-0.6S200
G1 X-1.3S0
G1 X-1.8S200
G1 X-1.8S0
G1 X-1.3S200
G1 X-1.8S0
G1 X-0.6S200
G1 X-0.7S0
G1 X-0.5S200
G1 X-2.5S0
G1 Y0.1
G1 X2.5
G1 X0.5S200
G1 X0.7S0
G1 X0.6S200
G1 X1.8S0
G1 X1.3S200
G1 X1.8S0
G1 X1.8S200
G1 X1.3S0
G1 X0.6S200
G1 X1.3S0
G1 X0.6S200
G1 X0.6S0
G1 X0.6S200
G1 X1.3S0
G1 X0.6S200
G1 X1.2S0
G1 X1.2S200
G1 X0.7S0
G1 X0.6S200
G1 X0.6S0
G1 X0.6S200
G1 X0.6S0
G1 X1.2S200
G1 X0.7S0
G1 X0.5S200
G1 X0.7S0
G1 X1.1S200
G1 X2S0
G1 X0.5S200
G1 X2.5S0
G1 Y0.1
G1 X-2.5
G1 X-0.5S200
G1 X-2S0
G1 X-1.1S200
G1 X-0.7S0
G1 X-0.5S200
G1 X-0.7S0
G1 X-1.2S200
G1 X-0.6S0
G1 X-0.6S200
G1 X-0.6S0
G1 X-0.6S200
G1 X-0.7S0
G1 X-1.2S200
G1 X-1.2S0
G1 X-0.6S200
G1 X-1.3S0
G1 X-0.6S200
G1 X-0.6S0
G1 X-0.6S200
G1 X-1.3S0
G1 X-0.6S200
G1 X-1.3S0
G1 X-1.8S200
G1 X-1.8S0
G1 X-1.3S200
G1 X-1.8S0
G1 X-0.6S200
G1 X-0.7S0
G1 X-0.5S200
G1 X-2.5S0
G1 X1.2Y0.1
G1 X2.5
G1 X0.6S200
G1 X0.6S0
G1 X0.6S200
G1 X2.5S0
G1 X0.5S200
G1 X0.7S0
G1 X0.7S200
G1 X1.2S0
G1 X1.8S200
G1 X0.7S0
G1 X2.4S200
G1 X0.6S0
G1 X0.7S200
G1 X0.6S0
G1 X0.6S200
G1 X1.2S0
G1 X0.6S200
G1 X0.7S0
G1 X1.1S200
G1 X0.7S0
G1 X0.5S200
G1 X0.7S0
G1 X1.3S200
G1 X1.2S0
G1 X0.6S200
G1 X3.1S0
G1 X0.6S200
G1 X2.5S0
G1 Y0.1
G1 X-2.5
G1 X-0.6S200
G1 X-3.1S0
G1 X-0.6S200
G1 X-1.2S0
G1 X-1.3S200
G1 X-0.7S0
G1 X-0.5S200
G1 X-0.7S0
G1 X-1.1S200
G1 X-0.7S0
G1 X-0.6S200
G1 X-1.2S0
G1 X-0.6S200
G1 X-0.6S0
G1 X-0.7S200
G1 X-0.6S0
G1 X-2.4S200
G1 X-0.7S0
G1 X-1.8S200
G1 X-1.2S0
G1 X-0.7S200
G1 X-0.7S0
G1 X-0.5S200
G1 X-2.5S0
G1 X-0.6S200
G1 X-0.6S0
G1 X-0.6S200
G1 X-2.5S0
G1 Y0.1
G1 X2.5
G1 X0.6S200
G1 X0.6S0
G1 X0.6S200
G1 X2.5S0
G1 X0.5S200
G1 X0.7S0
G1 X0.7S200
G1 X1.2S0
G1 X1.8S200
G1 X0.7S0
G1 X2.4S200
G1 X0.6S0
G1 X0.7S200
G1 X0.6S0
G1 X0.6S200
G1 X1.2S0
G1 X0.6S200
G1 X0.7S0
G1 X1.1S200
G1 X0.7S0
G1 X0.5S200
G1 X0.7S0
G1 X1.3S200
G1 X1.2S0
G1 X0.6S200
G1 X3.1S0
G1 X0.6S200
G1 X2.5S0
G1 Y0.1
G1 X-2.5
G1 X-0.6S200
G1 X-3.1S0
G1 X-0.6S200
G1 X-1.2S0
G1 X-1.3S200
G1 X-0.7S0
G1 X-0.5S200
G1 X-0.7S0
G1 X-1.1S200
G1 X-0.7S0
G1 X-0.6S200
G1 X-1.2S0
G1 X-0.6S200
G1 X-0.6S0
G1 X-0.7S200
G1 X-0.6S0
G1 X-2.4S200
G1 X-0.7S0
G1 X-1.8S200
G1 X-1.2S0
G1 X-0.7S200
G1 X-0.7S0
G1 X-0.5S200
G1 X-2.5S0
G1 X-0.6S200
G1 X-0.6S0
G1 X-0.6S200
G1 X-2.5S0
G1 Y0.1
G1 X2.5
G1 X0.6S200
G1 X0.6S0
G1 X0.6S200
G1 X2.5S0
G1 X0.5S200
G1 X0.7S0
G1 X0.7S200
G1 X1.2S0
G1 X1.8S200
G1 X0.7S0
G1 X2.4S200
G1 X0.6S0
G1 X0.7S200
G1 X0.6S0
G1 X0.6S200
G1 X1.2S0
G1 X0.6S200
G1 X0.7S0
G1 X1.1S200
G1 X0.7S0
G1 X0.5S200
G1 X0.7S0
G1 X1.3S200
G1 X1.2S0
G1 X0.6S200
G1 X3.1S0
G1 X0.6S200
G1 X2.5S0
G1 Y0.1
G1 X-2.5
G1 X-0.6S200
G1 X-3.1S0
G1 X-0.6S200
G1 X-1.2S0
G1 X-1.3S200
G1 X-0.7S0
G1 X-0.5S200
G1 X-0.7S0
G1 X-1.1S200
G1 X-0.7S0
G1 X-0.6S200
G1 X-1.2S0
G1 X-0.6S200
G1 X-0.6S0
G1 X-0.7S200
G1 X-0.6S0
G1 X-2.4S200
G1 X-0.7S0
G1 X-1.8S200
G1 X-1.2S0
G1 X-0.7S200
G1 X-0.7S0
G1 X-0.5S200
G1 X-2.5S0
G1 X-0.6S200
G1 X-0.6S0
G1 X-0.6S200
G1 X-2.5S0
G1 X-1.2Y0.1
G1 X2.5
G1 X2.4S200
G1 X0.6S0
G1 X1.1S200
G1 X0.8S0
G1 X1.9S200
G1 X2.4S0
G1 X0.7S200
G1 X0.5S0
G1 X3.1S200
G1 X0.6S0
G1 X0.7S200
G1 X1.1S0
G1 X1.2S200
G1 X1.4S0
G1 X1.1S200
G1 X1.3S0
G1 X0.7S200
G1 X3.7S0
G1 X2.5S200
G1 X1.8S0
G1 X0.5S200
G1 X2.5S0
G1 Y0.1
G1 X-2.5
G1 X-0.5S200
G1 X-2S0
G1 X-2.4S200
G1 X-3.7S0
G1 X-0.6S200
G1 X-1.3S0
G1 X-1.1S200
G1 X-1.4S0
G1 X-1.1S200
G1 X-1.2S0
G1 X-0.7S200
G1 X-0.6S0
G1 X-3.1S200
G1 X-0.6S0
G1 X-0.6S200
G1 X-2.6S0
G1 X-1.7S200
G1 X-0.6S0
G1 X-1.3S200
G1 X-0.6S0
G1 X-2.4S200
G1 X-2.5S0
G1 Y0.1
G1 X2.5
G1 X2.4S200
G1 X0.6S0
G1 X1.3S200
G1 X0.6S0
G1 X1.7S200
G1 X2.6S0
G1 X0.6S200
G1 X0.6S0
G1 X3.1S200
G1 X0.6S0
G1 X0.7S200
G1 X1.2S0
G1 X1.1S200
G1 X1.4S0
G1 X1.1S200
G1 X1.3S0
G1 X0.6S200
G1 X3.7S0
G1 X2.4S200
G1 X2S0
G1 X0.5S200
G1 X2.5S0
G1 Y0.1
G1 X-2.5
G1 X-0.5S200
G1 X-2S0
G1 X-2.4S200
G1 X-3.7S0
G1 X-0.6S200
G1 X-1.3S0
G1 X-1.1S200
G1 X-1.4S0
G1 X-1.1S200
G1 X-1.2S0
G1 X-0.7S200
G1 X-0.6S0
G1 X-3.1S200
G1 X-0.6S0
G1 X-0.6S200
G1 X-2.6S0
G1 X-1.7S200
G1 X-0.6S0
G1 X-1.3S200
G1 X-0.6S0
G1 X-2.4S200
G1 X-2.5S0
G1 Y0.1
G1 X2.5
G1 X2.4S200
G1 X0.6S0
G1 X1.3S200
G1 X0.6S0
G1 X1.7S200
G1 X2.6S0
G1 X0.6S200
G1 X0.6S0
G1 X3.1S200
G1 X0.6S0
G1 X0.7S200
G1 X1.2S0
G1 X1.1S200
G1 X1.4S0
G1 X1.1S200
G1 X1.3S0
G1 X0.6S200
G1 X3.7S0
G1 X2.4S200
G1 X2S0
G1 X0.5S200
G1 X2.5S0
G1 Y0.1
G1 X-2.5
G1 X-0.5S200
G1 X-2S0
G1 X-2.4S200
G1 X-3.7S0
G1 X-0.6S200
G1 X-1.3S0
G1 X-1.1S200
G1 X-1.4S0
G1 X-1.1S200
G1 X-1.2S0
G1 X-0.7S200
G1 X-0.6S0
G1 X-3.1S200
G1 X-0.6S0
G1 X-0.6S200
G1 X-2.6S0
G1 X-1.7S200
G1 X-0.6S0
G1 X-1.3S200
G1 X-0.6S0
G1 X-2.4S200
G1 X-2.5S0
G1 Y0.1
G1 X2.5
G1 X2.3S200
G1 X0.8S0
G1 X1.2S200
G1 X0.5S0
G1 X2S200
G1 X0.5S0
G1 X0.1S200
G1 X0.5S0
G1 X0.1S200
G1 X0.5S0
G1 X0.1S200
G1 X0.6S0
G1 X0.6S200
G1 X0.7S0
G1 X3S200
G1 X0.6S0
G1 X0.7S200
G1 X1.2S0
G1 X1.3S200
G1 X0.5S0
G1 X0.1S200
G1 X0.5S0
G1 X1.4S200
G1 X1.2S0
G1 X0.5S200
G1 X3.7S0
G1 X2.4S200
G1 X1.9S0
G1 X0.6S200
G1 X2.5S0
G1 X-0.5Y0.1
G1 X-2.5
G1 X-0.7S200
G1 X-1.3S0
G1 X-0.5S200
G1 X-0.6S0
G1 X-2.5S200
G1 X-0.7S0
G1 X-0.5S200
G1 X-2.5S0
G1 X-3.7S200
G1 X-1.2S0
G1 X-2.5S200
G1 X-0.6S0
G1 X-0.6S200
G1 X-2.6S0
G1 X-2.4S200
G1 X-0.7S0
G1 X-0.5S200
G1 X-0.6S0
G1 X-0.6S200
G1 X-3.2S0
G1 X-1.1S200
G1 X-2.5S0
G1 Y0.1
G1 X2.5
G1 X1.1S200
G1 X3.2S0
G1 X0.6S200
G1 X0.6S0
G1 X0.5S200
G1 X0.7S0
G1 X2.4S200
G1 X2.6S0
G1 X0.6S200
G1 X0.6S0
G1 X2.5S200
G1 X1.2S0
G1 X3.7S200
G1 X2.5S0
G1 X0.5S200
G1 X0.7S0
G1 X2.5S200
G1 X0.6S0
G1 X0.5S200
G1 X1.3S0
G1 X0.7S200
G1 X2.5S0
G1 Y0.1
G1 X-2.5
G1 X-0.7S200
G1 X-1.3S0
G1 X-0.5S200
G1 X-0.6S0
G1 X-2.5S200
G1 X-0.7S0
G1 X-0.5S200
G1 X-2.5S0
G1 X-3.7S200
G1 X-1.2S0
G1 X-2.5S200
G1 X-0.6S0
G1 X-0.6S200
G1 X-2.6S0
G1 X-2.4S200
G1 X-0.7S0
G1 X-0.5S200
G1 X-0.6S0
G1 X-0.6S200
G1 X-3.2S0
G1 X-1.1S200
G1 X-2.5S0
G1 Y0.1
G1 X2.5
G1 X1.1S200
G1 X3.2S0
G1 X0.6S200
G1 X0.6S0
G1 X0.5S200
G1 X0.7S0
G1 X2.4S200
G1 X2.6S0
G1 X0.6S200
G1 X0.6S0
G1 X2.5S200
G1 X1.2S0
G1 X3.7S200
G1 X2.5S0
G1 X0.5S200
G1 X0.7S0
G1 X2.5S200
G1 X0.6S0
G1 X0.5S200
G1 X1.3S0
G1 X0.7S200
G1 X2.5S0
G1 Y0.1
G1 X-2.5
G1 X-0.7S200
G1 X-1.3S0
G1 X-0.5S200
G1 X-0.6S0
G1 X-2.5S200
G1 X-0.7S0
G1 X-0.5S200
G1 X-2.5S0
G1 X-3.7S200
G1 X-1.2S0
G1 X-2.5S200
G1 X-0.6S0
G1 X-0.6S200
G1 X-2.6S0
G1 X-2.4S200
G1 X-0.7S0
G1 X-0.5S200
G1 X-0.6S0
G1 X-0.6S200
G1 X-3.2S0
G1 X-1.1S200
G1 X-2.5S0
G1 Y0.1
G1 X2.5
G1 X1.1S200
G1 X3.1S0
G1 X0.7S200
G1 X0.6S0
G1 X0.5S200
G1 X0.7S0
G1 X2.4S200
G1 X2.6S0
G1 X0.6S200
G1 X0.6S0
G1 X1.3S200
G1 X2.4S0
G1 X3.7S200
G1 X2.5S0
G1 X0.5S200
G1 X0.7S0
G1 X2.5S200
G1 X0.6S0
G1 X0.5S200
G1 X1.3S0
G1 X0.7S200
G1 X2.5S0
G1 X0.5Y0.1
G1 X-2.5
G1 X-0.5S200
G1 X-0.8S0
G1 X-1.1S200
G1 X-0.6S0
G1 X-4.9S200
G1 X-0.7S0
G1 X-0.6S200
G1 X-0.6S0
G1 X-0.6S200
G1 X-0.6S0
G1 X-0.6S200
G1 X-1.4S0
G1 X-0.5S200
G1 X-3.1S0
G1 X-1.2S200
G1 X-0.7S0
G1 X-0.5S200
G1 X-0.7S0
G1 X-1.8S200
G1 X-1.2S0
G1 X-0.7S200
G1 X-1.2S0
G1 X-0.6S200
G1 X-0.6S0
G1 X-1.9S200
G1 X-1.3S0
G1 X-1.1S200
G1 X-2.5S0
G1 Y0.1
G1 X2.5
G1 X1.1S200
G1 X1.3S0
G1 X1.9S200
G1 X0.6S0
G1 X0.6S200
G1 X1.2S0
G1 X0.7S200
G1 X1.2S0
G1 X1.8S200
G1 X0.7S0
G1 X0.5S200
G1 X0.7S0
G1 X1.2S200
G1 X3.1S0
G1 X0.5S200
G1 X1.4S0
G1 X0.6S200
G1 X0.6S0
G1 X0.6S200
G1 X0.6S0
G1 X0.6S200
G1 X0.7S0
G1 X4.9S200
G1 X0.6S0
G1 X1.1S200
G1 X0.8S0
G1 X0.5S200
G1 X2.5S0
G1 Y0.1
G1 X-2.5
G1 X-0.5S200
G1 X-0.8S0
G1 X-1.1S200
G1 X-0.6S0
G1 X-4.9S200
G1 X-0.7S0
G1 X-0.6S200
G1 X-0.6S0
G1 X-0.6S200
G1 X-0.6S0
G1 X-0.6S200
G1 X-1.4S0
G1 X-0.3S200
G1 X-3.5S0
G1 X-1S200
G1 X-0.7S0
G1 X-0.5S200
G1 X-0.7S0
G1 X-1.8S200
G1 X-1.2S0
G1 X-0.7S200
G1 X-1.2S0
G1 X-0.6S200
G1 X-0.6S0
G1 X-1.9S200
G1 X-1.3S0
G1 X-1.1S200
G1 X-2.5S0
G1 Y0.1
G1 X2.5
G1 X1.1S200
G1 X1.3S0
G1 X1.9S200
G1 X0.6S0
G1 X0.6S200
G1 X1.2S0
G1 X0.7S200
G1 X1.2S0
G1 X1.8S200
G1 X0.7S0
G1 X0.5S200
G1 X0.7S0
G1 X0.8S200
G1 X3.9S0
G1 X0.1S200
G1 X1.4S0
G1 X0.6S200
G1 X0.6S0
G1 X0.6S200
G1 X0.6S0
G1 X0.6S200
G1 X0.7S0
G1 X4.9S200
G1 X0.6S0
G1 X1.1S200
G1 X0.8S0
G1 X0.5S200
G1 X2.5S0
G1 Y0.1
G1 X-2.5
G1 X-0.5S200
G1 X-0.8S0
G1 X-1.1S200
G1 X-0.6S0
G1 X-4.9S200
G1 X-0.7S0
G1 X-0.6S200
G1 X-0.6S0
G1 X-0.6S200
G1 X-0.6S0
G1 X-0.6S200
G1 X-5.5S0
G1 X-0.7S200
G1 X-0.7S0
G1 X-0.5S200
G1 X-0.7S0
G1 X-1.8S200
G1 X-1.2S0
G1 X-0.7S200
G1 X-1.2S0
G1 X-0.6S200
G1 X-0.6S0
G1 X-1.9S200
G1 X-1.3S0
G1 X-1.1S200
G1 X-2.5S0
G1 Y0.1
G1 X2.5
G1 X1.1S200
G1 X1.3S0
G1 X1.9S200
G1 X0.6S0
G1 X0.6S200
G1 X1.2S0
G1 X0.6S200
G1 X1.3S0
G1 X1.8S200
G1 X0.6S0
G1 X0.6S200
G1 X0.7S0
G1 X0.5S200
G1 X5.6S0
G1 X0.7S200
G1 X0.6S0
G1 X0.6S200
G1 X0.6S0
G1 X0.7S200
G1 X0.6S0
G1 X4.9S200
G1 X0.6S0
G1 X1.3S200
G1 X0.6S0
G1 X0.5S200
G1 X2.5S0
G1 Y0.1
G1 X-2.5
G1 X-1.8S200
G1 X-1.2S0
G1 X-0.6S200
G1 X-1.4S0
G1 X-0.5S200
G1 X-1.3S0
G1 X-0.5S200
G1 X-0.7S0
G1 X-1.2S200
G1 X-1.8S0
G1 X-0.6S200
G1 X-6.9S0
G1 X-1.8S200
G1 X-0.7S0
G1 X-1.1S200
G1 X-2S0
G1 X-0.5S200
G1 X-0.6S0
G1 X-0.6S200
G1 X-0.7S0
G1 X-1.2S200
G1 X-0.6S0
G1 X-0.6S200
G1 X-0.7S0
G1 X-0.5S200
G1 X-2.5S0
G1 Y0.1
G1 X2.5
G1 X0.5S200
G1 X0.7S0
G1 X0.6S200
G1 X0.6S0
G1 X1.1S200
G1 X0.8S0
G1 X0.6S200
G1 X0.6S0
G1 X0.5S200
G1 X2S0
G1 X1.1S200
G1 X0.7S0
G1 X1.8S200
G1 X6.9S0
G1 X0.6S200
G1 X1.8S0
G1 X1.2S200
G1 X0.7S0
G1 X0.5S200
G1 X1.3S0
G1 X0.5S200
G1 X1.4S0
G1 X0.6S200
G1 X1.2S0
G1 X1.8S200
G1 X2.5S0
G1 Y0.1
G1 X-2.5
G1 X-1.8S200
G1 X-1.2S0
G1 X-0.6S200
G1 X-1.4S0
G1 X-0.5S200
G1 X-1.3S0
G1 X-0.5S200
G1 X-0.7S0
G1 X-1.2S200
G1 X-1.8S0
G1 X-0.6S200
G1 X-6.9S0
G1 X-1.8S200
G1 X-0.7S0
G1 X-1.1S200
G1 X-2S0
G1 X-0.5S200
G1 X-0.6S0
G1 X-0.6S200
G1 X-0.8S0
G1 X-1.1S200
G1 X-0.6S0
G1 X-0.6S200
G1 X-0.7S0
G1 X-0.5S200
G1 X-2.5S0
G1 Y0.1
G1 X2.5
G1 X0.5S200
G1 X0.7S0
G1 X0.6S200
G1 X0.6S0
G1 X1.1S200
G1 X0.8S0
G1 X0.6S200
G1 X0.6S0
G1 X0.5S200
G1 X2S0
G1 X1.1S200
G1 X0.7S0
G1 X1.8S200
G1 X6.9S0
G1 X0.6S200
G1 X1.8S0
G1 X1.2S200
G1 X0.7S0
G1 X0.5S200
G1 X1.3S0
G1 X0.5S200
G1 X1.4S0
G1 X0.6S200
G1 X1.2S0
G1 X1.8S200
G1 X2.5S0
G1 Y0.1
G1 X-2.5
G1 X-1.8S200
G1 X-1.2S0
G1 X-0.6S200
G1 X-1.4S0
G1 X-0.5S200
G1 X-1.3S0
G1 X-0.5S200
G1 X-0.7S0
G1 X-1.2S200
G1 X-1.8S0
G1 X-0.6S200
G1 X-6.9S0
G1 X-1.8S200
G1 X-0.7S0
G1 X-1.1S200
G1 X-2S0
G1 X-0.5S200
G1 X-0.6S0
G1 X-0.6S200
G1 X-0.8S0
G1 X-1.1S200
G1 X-0.6S0
G1 X-0.6S200
G1 X-0.7S0
G1 X-0.5S200
G1 X-2.5S0
G1 Y0.1
G1 X2.5
G1 X0.5S200
G1 X0.7S0
G1 X0.6S200
G1 X0.6S0
G1 X1.1S200
G1 X0.8S0
G1 X0.6S200
G1 X0.6S0
G1 X0.5S200
G1 X2S0
G1 X1.1S200
G1 X0.7S0
G1 X1.8S200
G1 X2.4S0
G1 X2.8S200
G1 X1.7S0
G1 X0.6S200
G1 X1.8S0
G1 X1.2S200
G1 X0.7S0
G1 X0.5S200
G1 X1.3S0
G1 X0.5S200
G1 X1.4S0
G1 X0.6S200
G1 X1.2S0
G1 X1.8S200
G1 X2.5S0
G1 X-0.5Y0.1
G1 X-2.5
G1 X-1.3S200
G1 X-0.7S0
G1 X-1.1S200
G1 X-1.4S0
G1 X-0.5S200
G1 X-1.3S0
G1 X-0.5S200
G1 X-2.5S0
G1 X-2.2S200
G1 X-1S0
G1 X-3S200
G1 X-2.1S0
G1 X-0.3S200
G1 X-0.7S0
G1 X-0.6S200
G1 X-0.6S0
G1 X-1.2S200
G1 X-0.6S0
G1 X-0.6S200
G1 X-0.8S0
G1 X-0.5S200
G1 X-1.8S0
G1 X-0.7S200
G1 X-1.8S0
G1 X-0.6S200
G1 X-2.5S0
G1 Y0.1
G1 X2.5
G1 X0.6S200
G1 X1.8S0
G1 X0.7S200
G1 X1.8S0
G1 X0.5S200
G1 X0.8S0
G1 X0.6S200
G1 X0.6S0
G1 X1.2S200
G1 X0.6S0
G1 X0.6S200
G1 X0.7S0
G1 X0.2S200
G1 X0.9S0
G1 X0.3S200
G1 X1.1S0
G1 X3.1S200
G1 X0.9S0
G1 X2.1S200
G1 X2.5S0
G1 X0.5S200
G1 X1.3S0
G1 X0.5S200
G1 X1.4S0
G1 X1.1S200
G1 X0.7S0
G1 X1.3S200
G1 X2.5S0
G1 Y0.1
G1 X-2.5
G1 X-1.3S200
G1 X-0.7S0
G1 X-1.1S200
G1 X-1.4S0
G1 X-0.5S200
G1 X-1.3S0
G1 X-0.5S200
G1 X-2.5S0
G1 X-2S200
G1 X-0.9S0
G1 X-3.1S200
G1 X-1S0
G1 X-0.6S200
G1 X-0.9S0
G1 X-0.1S200
G1 X-0.7S0
G1 X-0.6S200
G1 X-0.6S0
G1 X-1.2S200
G1 X-0.6S0
G1 X-0.6S200
G1 X-0.8S0
G1 X-0.5S200
G1 X-1.8S0
G1 X-0.7S200
G1 X-1.8S0
G1 X-0.6S200
G1 X-2.5S0
G1 Y0.1
G1 X2.5
G1 X0.6S200
G1 X1.8S0
G1 X0.7S200
G1 X1.8S0
G1 X0.5S200
G1 X0.8S0
G1 X0.6S200
G1 X0.6S0
G1 X1.2S200
G1 X0.6S0
G1 X0.6S200
G1 X0.7S0
G1 X0.1S200
G1 X0.8S0
G1 X0.8S200
G1 X0.9S0
G1 X3.2S200
G1 X0.9S0
G1 X1.9S200
G1 X2.5S0
G1 X0.5S200
G1 X1.3S0
G1 X0.5S200
G1 X1.4S0
G1 X1.1S200
G1 X0.7S0
G1 X1.3S200
G1 X2.5S0
G1 Y0.1
G1 X-2.5
G1 X-1.3S200
G1 X-0.7S0
G1 X-1.1S200
G1 X-1.4S0
G1 X-0.5S200
G1 X-1.3S0
G1 X-0.5S200
G1 X-2.5S0
G1 X-1.8S200
G1 X-0.9S0
G1 X-3.2S200
G1 X-1S0
G1 X-0.9S200
G1 X-1.5S0
G1 X-0.6S200
G1 X-0.6S0
G1 X-1.2S200
G1 X-0.6S0
G1 X-0.6S200
G1 X-0.8S0
G1 X-0.5S200
G1 X-1.8S0
G1 X-0.7S200
G1 X-1.8S0
G1 X-0.6S200
G1 X-2.5S0
G1 Y0.1
G1 X2.5
G1 X0.6S200
G1 X1.8S0
G1 X0.7S200
G1 X1.8S0
G1 X0.5S200
G1 X0.8S0
G1 X0.6S200
G1 X0.6S0
G1 X1.2S200
G1 X0.6S0
G1 X0.6S200
G1 X1.4S0
G1 X1.1S200
G1 X0.9S0
G1 X3.3S200
G1 X0.8S0
G1 X1.8S200
G1 X2.5S0
G1 X0.5S200
G1 X1.3S0
G1 X0.5S200
G1 X1.4S0
G1 X1.1S200
G1 X0.7S0
G1 X1.3S200
G1 X2.5S0
G1 X-1.3Y0.1
G1 X-2.5
G1 X-0.6S200
G1 X-0.6S0
G1 X-0.6S200
G1 X-0.7S0
G1 X-1.2S200
G1 X-0.6S0
G1 X-1.2S200
G1 X-0.7S0
G1 X-0.6S200
G1 X-0.7S0
G1 X-1.1S200
G1 X-0.6S0
G1 X-0.5S200
G1 X-0.8S0
G1 X-3.3S200
G1 X-0.9S0
G1 X-1.2S200
G1 X-1.4S0
G1 X-0.6S200
G1 X-0.6S0
G1 X-1.2S200
G1 X-1.2S0
G1 X-0.7S200
G1 X-0.7S0
G1 X-0.5S200
G1 X-2.5S0
G1 X-0.6S200
G1 X-2.5S0
G1 Y0.1
G1 X2.5
G1 X0.6S200
G1 X2.5S0
G1 X0.5S200
G1 X0.7S0
G1 X0.7S200
G1 X1.2S0
G1 X1.2S200
G1 X0.6S0
G1 X0.6S200
G1 X1.3S0
G1 X1.3S200
G1 X0.9S0
G1 X3.3S200
G1 X0.8S0
G1 X0.5S200
G1 X0.6S0
G1 X1.1S200
G1 X0.7S0
G1 X0.6S200
G1 X0.7S0
G1 X1.2S200
G1 X0.6S0
G1 X1.2S200
G1 X0.7S0
G1 X0.6S200
G1 X0.6S0
G1 X0.6S200
G1 X2.5S0
G1 Y0.1
G1 X-2.5
G1 X-0.6S200
G1 X-0.6S0
G1 X-0.6S200
G1 X-0.7S0
G1 X-1.2S200
G1 X-0.6S0
G1 X-1.2S200
G1 X-0.7S0
G1 X-0.6S200
G1 X-0.7S0
G1 X-1.1S200
G1 X-0.6S0
G1 X-0.4S200
G1 X-0.9S0
G1 X-3.3S200
G1 X-0.8S0
G1 X-1.4S200
G1 X-1.3S0
G1 X-0.6S200
G1 X-0.6S0
G1 X-1.2S200
G1 X-1.2S0
G1 X-0.7S200
G1 X-0.7S0
G1 X-0.5S200
G1 X-2.5S0
G1 X-0.6S200
G1 X-2.5S0
G1 Y0.1
G1 X2.5
G1 X0.6S200
G1 X2.5S0
G1 X0.5S200
G1 X0.7S0
G1 X0.7S200
G1 X1.2S0
G1 X1.2S200
G1 X0.6S0
G1 X0.6S200
G1 X1.2S0
G1 X1.5S200
G1 X0.9S0
G1 X0.6S200
G1 X0.1S0
G1 X2.6S200
G1 X0.8S0
G1 X0.4S200
G1 X0.6S0
G1 X1.1S200
G1 X0.7S0
G1 X0.6S200
G1 X0.7S0
G1 X1.2S200
G1 X0.6S0
G1 X1.2S200
G1 X0.7S0
G1 X0.6S200
G1 X0.6S0
G1 X0.6S200
G1 X2.5S0
G1 Y0.1
G1 X-2.5
G1 X-0.6S200
G1 X-0.6S0
G1 X-0.6S200
G1 X-0.7S0
G1 X-1.2S200
G1 X-0.6S0
G1 X-1.2S200
G1 X-0.7S0
G1 X-0.6S200
G1 X-0.7S0
G1 X-1.1S200
G1 X-0.6S0
G1 X-0.3S200
G1 X-0.9S0
G1 X-2.4S200
G1 X-0.4S0
G1 X-0.5S200
G1 X-1S0
G1 X-1.4S200
G1 X-1.2S0
G1 X-0.6S200
G1 X-0.6S0
G1 X-1.2S200
G1 X-1.2S0
G1 X-0.7S200
G1 X-0.7S0
G1 X-0.5S200
G1 X-2.5S0
G1 X-0.6S200
G1 X-2.5S0
G1 Y0.1
G1 X2.5
G1 X0.6S200
G1 X2.5S0
G1 X0.5S200
G1 X0.7S0
G1 X0.7S200
G1 X1.2S0
G1 X1.2S200
G1 X0.6S0
G1 X0.6S200
G1 X1.2S0
G1 X1.4S200
G1 X1S0
G1 X0.6S200
G1 X0.7S0
G1 X2S200
G1 X0.9S0
G1 X0.3S200
G1 X0.6S0
G1 X1.1S200
G1 X0.7S0
G1 X0.6S200
G1 X0.7S0
G1 X1.2S200
G1 X0.6S0
G1 X1.2S200
G1 X0.7S0
G1 X0.6S200
G1 X0.6S0
G1 X0.6S200
G1 X2.5S0
G1 X1.2Y0.1
G1 X-2.5
G1 X-4.9S200
G1 X-0.6S0
G1 X-2.5S200
G1 X-1.2S0
G1 X-0.6S200
G1 X-0.6S0
G1 X-0.2S200
G1 X-1S0
G1 X-1.7S200
G1 X-0.9S0
G1 X-0.7S200
G1 X-1S0
G1 X-1.4S200
G1 X-1S0
G1 X-0.8S200
G1 X-0.6S0
G1 X-1.2S200
G1 X-0.7S0
G1 X-0.6S200
G1 X-0.5S0
G1 X-4.4S200
G1 X-0.6S0
G1 X-0.6S200
G1 X-0.7S0
G1 X-0.5S200
G1 X-2.5S0
G1 Y0.1
G1 X2.5
G1 X0.5S200
G1 X0.7S0
G1 X0.6S200
G1 X0.6S0
G1 X4.2S200
G1 X0.8S0
G1 X0.6S200
G1 X0.6S0
G1 X1.2S200
G1 X0.6S0
G1 X0.8S200
G1 X1S0
G1 X1.3S200
G1 X1S0
G1 X1.1S200
G1 X1.1S0
G1 X1.3S200
G1 X0.9S0
G1 X0.2S200
G1 X0.6S0
G1 X0.6S200
G1 X1.2S0
G1 X2.5S200
G1 X0.6S0
G1 X5S200
G1 X2.5S0
G1 Y0.1
G1 X-2.5
G1 X-5S200
G1 X-0.6S0
G1 X-2.5S200
G1 X-1.2S0
G1 X-0.6S200
G1 X-0.6S0
G1 X-0.1S200
G1 X-1.1S0
G1 X-0.9S200
G1 X-1.2S0
G1 X-1.3S200
G1 X-1.1S0
G1 X-1.2S200
G1 X-1S0
G1 X-0.8S200
G1 X-0.6S0
G1 X-1.2S200
G1 X-0.6S0
G1 X-0.6S200
G1 X-0.8S0
G1 X-4.2S200
G1 X-0.6S0
G1 X-0.6S200
G1 X-0.7S0
G1 X-0.5S200
G1 X-2.5S0
G1 Y0.1
G1 X2.5
G1 X0.5S200
G1 X0.7S0
G1 X0.6S200
G1 X0.6S0
G1 X4.2S200
G1 X0.8S0
G1 X0.6S200
G1 X0.6S0
G1 X1.2S200
G1 X0.6S0
G1 X0.7S200
G1 X1.1S0
G1 X1.1S200
G1 X1.2S0
G1 X1.5S200
G1 X1.4S0
G1 X0.5S200
G1 X1.1S0
G1 X0.1S200
G1 X0.6S0
G1 X0.6S200
G1 X1.2S0
G1 X2.5S200
G1 X0.6S0
G1 X5S200
G1 X2.5S0
G1 Y0.1
G1 X-2.5
G1 X-5S200
G1 X-0.6S0
G1 X-2.5S200
G1 X-1.2S0
G1 X-0.6S200
G1 X-0.6S0
G1 X-0.1S200
G1 X-1S0
G1 X-0.5S200
G1 X-1.2S0
G1 X-1.9S200
G1 X-1.5S0
G1 X-0.7S200
G1 X-1.1S0
G1 X-0.7S200
G1 X-0.6S0
G1 X-1.2S200
G1 X-0.6S0
G1 X-0.6S200
G1 X-0.8S0
G1 X-4.2S200
G1 X-0.6S0
G1 X-0.6S200
G1 X-0.7S0
G1 X-0.5S200
G1 X-2.5S0
G1 Y0.1
G1 X2.5
G1 X0.5S200
G1 X0.7S0
G1 X0.6S200
G1 X0.6S0
G1 X4.2S200
G1 X0.8S0
G1 X0.6S200
G1 X0.6S0
G1 X1.2S200
G1 X0.6S0
G1 X0.7S200
G1 X1.1S0
G1 X0.3S200
G1 X1.9S0
G1 X0.4S200
G1 X0.4S0
G1 X1.6S200
G1 X0.7S0
G1 X0.4S200
G1 X1.8S0
G1 X0.6S200
G1 X1.2S0
G1 X2.5S200
G1 X0.6S0
G1 X5S200
G1 X2.5S0
G1 Y0.1
G1 X-2.5
G1 X-5S200
G1 X-0.6S0
G1 X-2.5S200
G1 X-1.2S0
G1 X-0.6S200
G1 X-1.8S0
G1 X-0.6S200
G1 X-0.2S0
G1 X-1.7S200
G1 X-0.7S0
G1 X-0.4S200
G1 X-2S0
G1 X-0.1S200
G1 X-1.1S0
G1 X-0.6S200
G1 X-0.7S0
G1 X-1.2S200
G1 X-0.7S0
G1 X-0.6S200
G1 X-0.5S0
G1 X-4.4S200
G1 X-0.6S0
G1 X-0.6S200
G1 X-0.7S0
G1 X-0.5S200
G1 X-2.5S0
G1 X2.4Y0.1
G1 X2.5
G1 X0.6S200
G1 X1.9S0
G1 X1.1S200
G1 X0.7S0
G1 X0.7S200
G1 X1.2S0
G1 X0.5S200
G1 X5.2S0
G1 X0.3S200
G1 X0.9S0
G1 X2.5S200
G1 X3.5S0
G1 X2.5S200
G1 X0.6S0
G1 X0.5S200
G1 X2S0
G1 X3S200
G1 X2.5S0
G1 Y0.1
G1 X-2.5
G1 X-3S200
G1 X-2S0
G1 X-0.5S200
G1 X-0.6S0
G1 X-2.5S200
G1 X-3.6S0
G1 X-1.7S200
G1 X-0.4S0
G1 X-0.1S200
G1 X-1.2S0
G1 X-0.3S200
G1 X-5.1S0
G1 X-0.5S200
G1 X-1.2S0
G1 X-0.7S200
G1 X-0.7S0
G1 X-1.1S200
G1 X-1.9S0
G1 X-0.6S200
G1 X-2.5S0
G1 Y0.1
G1 X2.5
G1 X0.6S200
G1 X1.9S0
G1 X1.1S200
G1 X0.7S0
G1 X0.7S200
G1 X1.2S0
G1 X0.5S200
G1 X4.9S0
G1 X0.5S200
G1 X1.9S0
G1 X1.5S200
G1 X3.6S0
G1 X2.5S200
G1 X0.6S0
G1 X0.5S200
G1 X2S0
G1 X3S200
G1 X2.5S0
G1 Y0.1
G1 X-2.5
G1 X-3S200
G1 X-2S0
G1 X-0.5S200
G1 X-0.6S0
G1 X-2.5S200
G1 X-3.5S0
G1 X-1.5S200
G1 X-1.2S0
G1 X-0.1S200
G1 X-0.7S0
G1 X-0.6S200
G1 X-4.8S0
G1 X-0.5S200
G1 X-1.2S0
G1 X-0.7S200
G1 X-0.7S0
G1 X-1.1S200
G1 X-1.9S0
G1 X-0.6S200
G1 X-2.5S0
G1 Y0.1
G1 X2.5
G1 X0.6S200
G1 X1.9S0
G1 X1.1S200
G1 X0.7S0
G1 X0.7S200
G1 X1.2S0
G1 X0.5S200
G1 X4.5S0
G1 X0.8S200
G1 X0.7S0
G1 X0.3S200
G1 X1.2S0
G1 X0.4S200
G1 X0.4S0
G1 X0.5S200
G1 X3.6S0
G1 X2.5S200
G1 X0.6S0
G1 X0.5S200
G1 X2S0
G1 X3S200
G1 X2.5S0
G1 Y0.1
G1 X-2.5
G1 X-3S200
G1 X-1.8S0
G1 X-0.7S200
G1 X-0.5S0
G1 X-2.6S200
G1 X-3.6S0
G1 X-0.3S200
G1 X-0.8S0
G1 X-0.1S200
G1 X-1.2S0
G1 X-0.5S200
G1 X-0.6S0
G1 X-1.1S200
G1 X-4.2S0
G1 X-0.5S200
G1 X-1.2S0
G1 X-0.7S200
G1 X-0.7S0
G1 X-1.1S200
G1 X-1.9S0
G1 X-0.6S200
G1 X-2.5S0
G1 X-1.9Y0.1
G1 X2.5
G1 X2.5S200
G1 X0.6S0
G1 X0.7S200
G1 X0.6S0
G1 X1.1S200
G1 X0.7S0
G1 X0.7S200
G1 X3S0
G1 X0.6S200
G1 X1.8S0
G1 X1.6S200
G1 X0.6S0
G1 X0.5S200
G1 X0.7S0
G1 X0.1S200
G1 X1.5S0
G1 X0.1S200
G1 X1.3S0
G1 X1.6S200
G1 X0.7S0
G1 X1.3S200
G1 X0.6S0
G1 X1.7S200
G1 X0.8S0
G1 X0.6S200
G1 X0.6S0
G1 X0.5S200
G1 X0.7S0
G1 X1.8S200
G1 X2.5S0
G1 Y0.1
G1 X-2.5
G1 X-1.8S200
G1 X-0.7S0
G1 X-0.5S200
G1 X-0.6S0
G1 X-0.6S200
G1 X-0.8S0
G1 X-1.7S200
G1 X-0.6S0
G1 X-1.3S200
G1 X-0.7S0
G1 X-1.6S200
G1 X-2.8S0
G1 X-0.3S200
G1 X-0.5S0
G1 X-0.6S200
G1 X-0.6S0
G1 X-1.8S200
G1 X-1.7S0
G1 X-0.5S200
G1 X-3S0
G1 X-0.7S200
G1 X-0.7S0
G1 X-1.1S200
G1 X-0.6S0
G1 X-0.7S200
G1 X-0.6S0
G1 X-2.5S200
G1 X-2.5S0
G1 Y0.1
G1 X2.5
G1 X2.5S200
G1 X0.6S0
G1 X0.7S200
G1 X0.6S0
G1 X1.1S200
G1 X0.7S0
G1 X0.7S200
G1 X3S0
G1 X0.6S200
G1 X1.5S0
G1 X1.9S200
G1 X0.6S0
G1 X0.6S200
G1 X0.5S0
G1 X0.3S200
G1 X2.8S0
G1 X1.6S200
G1 X0.7S0
G1 X1.3S200
G1 X0.6S0
G1 X1.7S200
G1 X0.8S0
G1 X0.6S200
G1 X0.6S0
G1 X0.5S200
G1 X0.7S0
G1 X1.8S200
G1 X2.5S0
G1 Y0.1
G1 X-2.5
G1 X-1.8S200
G1 X-0.7S0
G1 X-0.5S200
G1 X-0.6S0
G1 X-0.6S200
G1 X-0.8S0
G1 X-1.7S200
G1 X-0.6S0
G1 X-1.3S200
G1 X-0.7S0
G1 X-1.6S200
G1 X-1.8S0
G1 X-0.1S200
G1 X-0.8S0
G1 X-0.4S200
G1 X-0.5S0
G1 X-0.6S200
G1 X-0.5S0
G1 X-2.1S200
G1 X-1.5S0
G1 X-0.5S200
G1 X-3S0
G1 X-0.7S200
G1 X-0.7S0
G1 X-1.1S200
G1 X-0.6S0
G1 X-0.7S200
G1 X-0.6S0
G1 X-2.5S200
G1 X-2.5S0
G1 Y0.1
G1 X2.5
G1 X2.5S200
G1 X0.6S0
G1 X0.7S200
G1 X0.6S0
G1 X1.1S200
G1 X0.7S0
G1 X0.7S200
G1 X3S0
G1 X0.6S200
G1 X1.4S0
G1 X2.1S200
G1 X0.5S0
G1 X0.6S200
G1 X0.5S0
G1 X0.5S200
G1 X0.6S0
G1 X0.4S200
G1 X1.6S0
G1 X1.6S200
G1 X0.7S0
G1 X1.3S200
G1 X0.6S0
G1 X1.7S200
G1 X0.8S0
G1 X0.6S200
G1 X0.6S0
G1 X0.5S200
G1 X0.7S0
G1 X1.8S200
G1 X2.5S0
G1 Y0.1
G1 X-2.5
G1 X-1.8S200
G1 X-0.7S0
G1 X-0.5S200
G1 X-0.6S0
G1 X-0.6S200
G1 X-0.6S0
G1 X-1.9S200
G1 X-0.6S0
G1 X-1.3S200
G1 X-0.7S0
G1 X-1.6S200
G1 X-1.5S0
G1 X-0.5S200
G1 X-0.6S0
G1 X-0.4S200
G1 X-0.5S0
G1 X-0.6S200
G1 X-0.6S0
G1 X-2.2S200
G1 X-1.4S0
G1 X-0.5S200
G1 X-3S0
G1 X-0.7S200
G1 X-0.7S0
G1 X-1.1S200
G1 X-0.6S0
G1 X-0.7S200
G1 X-0.6S0
G1 X-2.5S200
G1 X-2.5S0
G1 X-0.5Y0.1
G1 X2.5
G1 X0.5S200
G1 X1.9S0
G1 X0.6S200
G1 X1.9S0
G1 X1.7S200
G1 X1.4S0
G1 X3S200
G1 X1.3S0
G1 X2.3S200
G1 X0.6S0
G1 X0.4S200
G1 X0.6S0
G1 X0.5S200
G1 X0.5S0
G1 X0.5S200
G1 X1.4S0
G1 X0.5S200
G1 X0.7S0
G1 X0.5S200
G1 X0.7S0
G1 X1.3S200
G1 X1.8S0
G1 X0.5S200
G1 X2S0
G1 X3S200
G1 X2.5S0
G1 Y0.1
G1 X-2.5
G1 X-3S200
G1 X-2S0
G1 X-0.5S200
G1 X-1.8S0
G1 X-1.3S200
G1 X-0.7S0
G1 X-0.5S200
G1 X-0.7S0
G1 X-0.5S200
G1 X-1.3S0
G1 X-0.6S200
G1 X-0.5S0
G1 X-0.5S200
G1 X-0.6S0
G1 X-0.3S200
G1 X-0.7S0
G1 X-0.6S200
G1 X-0.1S0
G1 X-1.5S200
G1 X-1.4S0
G1 X-3S200
G1 X-1.4S0
G1 X-1.7S200
G1 X-1.9S0
G1 X-0.6S200
G1 X-1.9S0
G1 X-0.5S200
G1 X-2.5S0
G1 Y0.1
G1 X2.5
G1 X0.5S200
G1 X1.9S0
G1 X0.6S200
G1 X1.9S0
G1 X1.7S200
G1 X1.4S0
G1 X3S200
G1 X1.3S0
G1 X1.4S200
G1 X0.6S0
G1 X0.4S200
G1 X1.5S0
G1 X0.5S200
G1 X0.5S0
G1 X0.6S200
G1 X1.3S0
G1 X0.5S200
G1 X0.7S0
G1 X0.5S200
G1 X0.7S0
G1 X1.3S200
G1 X1.8S0
G1 X0.5S200
G1 X2S0
G1 X3S200
G1 X2.5S0
G1 Y0.1
G1 X-2.5
G1 X-3S200
G1 X-2S0
G1 X-0.5S200
G1 X-1.8S0
G1 X-1.3S200
G1 X-0.7S0
G1 X-0.5S200
G1 X-0.7S0
G1 X-0.5S200
G1 X-1.2S0
G1 X-0.7S200
G1 X-0.5S0
G1 X-0.5S200
G1 X-1.4S0
G1 X-0.4S200
G1 X-0.8S0
G1 X-1.2S200
G1 X-1.4S0
G1 X-3S200
G1 X-1.4S0
G1 X-1.7S200
G1 X-1.9S0
G1 X-0.6S200
G1 X-1.9S0
G1 X-0.5S200
G1 X-2.5S0
G1 Y0.1
G1 X2.5
G1 X0.5S200
G1 X1.9S0
G1 X0.6S200
G1 X1.9S0
G1 X1.7S200
G1 X1.4S0
G1 X3S200
G1 X1.4S0
G1 X1.1S200
G1 X0.9S0
G1 X0.5S200
G1 X1.3S0
G1 X0.5S200
G1 X0.6S0
G1 X0.6S200
G1 X1.2S0
G1 X0.5S200
G1 X0.7S0
G1 X0.5S200
G1 X0.7S0
G1 X1.3S200
G1 X1.8S0
G1 X0.5S200
G1 X2S0
G1 X3S200
G1 X2.5S0
G1 Y0.1
G1 X-2.5
G1 X-3S200
G1 X-1.8S0
G1 X-0.7S200
G1 X-1.8S0
G1 X-1.3S200
G1 X-0.7S0
G1 X-0.5S200
G1 X-0.7S0
G1 X-0.5S200
G1 X-1.2S0
G1 X-0.7S200
G1 X-0.6S0
G1 X-0.4S200
G1 X-1.2S0
G1 X-0.6S200
G1 X-0.9S0
G1 X-1.1S200
G1 X-1.4S0
G1 X-3S200
G1 X-1.4S0
G1 X-1.7S200
G1 X-1.9S0
G1 X-0.6S200
G1 X-1.9S0
G1 X-0.5S200
G1 X-2.5S0
G1 Y0.1
G1 X2.5
G1 X0.5S200
G1 X0.7S0
G1 X4.3S200
G1 X0.6S0
G1 X1.9S200
G1 X1.2S0
G1 X0.6S200
G1 X0.6S0
G1 X0.7S200
G1 X1.5S0
G1 X0.8S200
G1 X1.1S0
G1 X1.2S200
G1 X0.5S0
G1 X0.4S200
G1 X0.7S0
G1 X0.6S200
G1 X3S0
G1 X1.2S200
G1 X1.9S0
G1 X3.6S200
G1 X2.5S0
G1 Y0.1
G1 X-2.5
G1 X-3.6S200
G1 X-1.9S0
G1 X-1.2S200
G1 X-2.9S0
G1 X-0.6S200
G1 X-0.9S0
G1 X-0.3S200
G1 X-0.3S0
G1 X-1.5S200
G1 X-1.1S0
G1 X-0.5S200
G1 X-1.7S0
G1 X-0.7S200
G1 X-0.6S0
G1 X-0.6S200
G1 X-1.2S0
G1 X-1.9S200
G1 X-0.6S0
G1 X-4.3S200
G1 X-0.7S0
G1 X-0.5S200
G1 X-2.5S0
G1 Y0.1
G1 X2.5
G1 X0.5S200
G1 X0.7S0
G1 X4.3S200
G1 X0.6S0
G1 X1.9S200
G1 X1.2S0
G1 X0.6S200
G1 X0.6S0
G1 X0.7S200
G1 X3.3S0
G1 X2.2S200
G1 X1.1S0
G1 X0.2S200
G1 X3S0
G1 X1.2S200
G1 X1.9S0
G1 X3.6S200
G1 X2.5S0
G1 Y0.1
G1 X-2.5
G1 X-3.6S200
G1 X-1.9S0
G1 X-1.2S200
G1 X-3S0
G1 X-0.2S200
G1 X-1S0
G1 X-2.3S200
G1 X-3.3S0
G1 X-0.7S200
G1 X-0.6S0
G1 X-0.6S200
G1 X-1.2S0
G1 X-1.9S200
G1 X-0.6S0
G1 X-4.3S200
G1 X-0.7S0
G1 X-0.5S200
G1 X-2.5S0
G1 Y0.1
G1 X2.5
G1 X0.5S200
G1 X0.7S0
G1 X4.3S200
G1 X0.6S0
G1 X1.9S200
G1 X1.2S0
G1 X0.6S200
G1 X0.6S0
G1 X0.8S200
G1 X3.1S0
G1 X2.5S200
G1 X0.9S0
G1 X0.3S200
G1 X2.9S0
G1 X1.2S200
G1 X1.9S0
G1 X3.6S200
G1 X2.5S0
G1 Y0.1
G1 X-2.5
G1 X-3.6S200
G1 X-1.9S0
G1 X-1.2S200
G1 X-3S0
G1 X-0.2S200
G1 X-0.9S0
G1 X-2.5S200
G1 X-3.1S0
G1 X-0.8S200
G1 X-0.6S0
G1 X-0.6S200
G1 X-1.2S0
G1 X-1.9S200
G1 X-0.6S0
G1 X-4.3S200
G1 X-0.7S0
G1 X-0.5S200
G1 X-2.5S0
G1 X1.2Y0.1
G1 X2.5
G1 X0.6S200
G1 X0.6S0
G1 X0.6S200
G1 X1.9S0
G1 X1.1S200
G1 X1.3S0
G1 X0.7S200
G1 X0.6S0
G1 X2.4S200
G1 X1.2S0
G1 X0.1S200
G1 X1.9S0
G1 X2.6S200
G1 X0.6S0
G1 X0.5S200
G1 X1.2S0
G1 X0.5S200
G1 X0.7S0
G1 X0.5S200
G1 X0.7S0
G1 X1.3S200
G1 X2.4S0
G1 X1.3S200
G1 X2.5S0
G1 Y0.1
G1 X-2.5
G1 X-1.3S200
G1 X-2.4S0
G1 X-1.3S200
G1 X-0.7S0
G1 X-0.5S200
G1 X-0.7S0
G1 X-0.5S200
G1 X-1.2S0
G1 X-0.5S200
G1 X-0.6S0
G1 X-2.8S200
G1 X-1.6S0
G1 X-0.2S200
G1 X-1.2S0
G1 X-2.4S200
G1 X-0.6S0
G1 X-0.6S200
G1 X-1.4S0
G1 X-1.1S200
G1 X-1.9S0
G1 X-0.6S200
G1 X-0.6S0
G1 X-0.6S200
G1 X-2.5S0
G1 Y0.1
G1 X2.5
G1 X0.6S200
G1 X0.6S0
G1 X0.6S200
G1 X1.9S0
G1 X1.1S200
G1 X1.4S0
G1 X0.6S200
G1 X0.6S0
G1 X2.4S200
G1 X1.2S0
G1 X0.6S200
G1 X1S0
G1 X3S200
G1 X0.6S0
G1 X0.5S200
G1 X1.2S0
G1 X0.5S200
G1 X0.7S0
G1 X0.5S200
G1 X0.7S0
G1 X1.3S200
G1 X2.4S0
G1 X1.3S200
G1 X2.5S0
G1 Y0.1
G1 X-2.5
G1 X-1.3S200
G1 X-2.4S0
G1 X-1.3S200
G1 X-0.7S0
G1 X-0.5S200
G1 X-0.7S0
G1 X-0.5S200
G1 X-1.2S0
G1 X-0.5S200
G1 X-0.5S0
G1 X-3.5S200
G1 X-0.3S0
G1 X-0.8S200
G1 X-1.3S0
G1 X-2.4S200
G1 X-0.6S0
G1 X-0.6S200
G1 X-1.4S0
G1 X-1.1S200
G1 X-1.9S0
G1 X-0.6S200
G1 X-0.6S0
G1 X-0.6S200
G1 X-2.5S0
G1 Y0.1
G1 X2.5
G1 X0.6S200
G1 X0.6S0
G1 X0.6S200
G1 X1.9S0
G1 X1.1S200
G1 X1.4S0
G1 X0.6S200
G1 X0.6S0
G1 X2.4S200
G1 X1.3S0
G1 X4.7S200
G1 X0.4S0
G1 X0.4S200
G1 X1.3S0
G1 X0.5S200
G1 X0.7S0
G1 X0.5S200
G1 X0.7S0
G1 X1.3S200
G1 X2.4S0
G1 X1.3S200
G1 X2.5S0
G1 Y0.1
G1 X-2.5
G1 X-1.3S200
G1 X-2.4S0
G1 X-1.3S200
G1 X-0.7S0
G1 X-0.5S200
G1 X-0.7S0
G1 X-0.5S200
G1 X-1.3S0
G1 X-5.5S200
G1 X-1.3S0
G1 X-2.4S200
G1 X-0.6S0
G1 X-0.6S200
G1 X-1.4S0
G1 X-1.1S200
G1 X-1.9S0
G1 X-0.6S200
G1 X-0.6S0
G1 X-0.6S200
G1 X-2.5S0
G1 Y0.1
G1 X2.5
G1 X0.6S200
G1 X0.6S0
G1 X0.6S200
G1 X1.2S0
G1 X0.1S200
G1 X0.5S0
G1 X1.2S200
G1 X0.7S0
G1 X0.1S200
G1 X0.5S0
G1 X0.7S200
G1 X0.5S0
G1 X2.5S200
G1 X1.4S0
G1 X5.3S200
G1 X1.4S0
G1 X0.5S200
G1 X0.7S0
G1 X0.7S200
G1 X0.5S0
G1 X1.1S200
G1 X2.7S0
G1 X1S200
G1 X2.5S0
G1 X2Y0.1
G1 X-2.5
G1 X-0.6S200
G1 X-3.7S0
G1 X-0.6S200
G1 X-1.9S0
G1 X-0.6S200
G1 X-1.3S0
G1 X-0.5S200
G1 X-1.4S0
G1 X-5.3S200
G1 X-1.4S0
G1 X-0.6S200
G1 X-1.9S0
G1 X-0.5S200
G1 X-0.6S0
G1 X-1.3S200
G1 X-0.6S0
G1 X-1.9S200
G1 X-1.2S0
G1 X-0.6S200
G1 X-2.5S0
G1 Y0.1
G1 X2.5
G1 X0.6S200
G1 X1.2S0
G1 X1.9S200
G1 X0.6S0
G1 X1.3S200
G1 X0.6S0
G1 X0.5S200
G1 X1.9S0
G1 X0.6S200
G1 X1.6S0
G1 X5S200
G1 X1.5S0
G1 X0.5S200
G1 X1.3S0
G1 X0.6S200
G1 X1.9S0
G1 X0.6S200
G1 X3.7S0
G1 X0.6S200
G1 X2.5S0
G1 Y0.1
G1 X-2.5
G1 X-0.6S200
G1 X-3.7S0
G1 X-0.6S200
G1 X-1.9S0
G1 X-0.6S200
G1 X-1.3S0
G1 X-0.5S200
G1 X-1.6S0
G1 X-4.9S200
G1 X-0.8S0
G1 X-0.1S200
G1 X-0.7S0
G1 X-0.6S200
G1 X-1.9S0
G1 X-0.5S200
G1 X-0.6S0
G1 X-1.3S200
G1 X-0.6S0
G1 X-1.9S200
G1 X-1.2S0
G1 X-0.6S200
G1 X-2.5S0
G1 Y0.1
G1 X2.5
G1 X0.6S200
G1 X1.2S0
G1 X1.9S200
G1 X0.6S0
G1 X1.3S200
G1 X0.6S0
G1 X0.5S200
G1 X1.9S0
G1 X0.6S200
G1 X0.7S0
G1 X0.1S200
G1 X0.9S0
G1 X4.7S200
G1 X1.7S0
G1 X0.5S200
G1 X1.3S0
G1 X0.6S200
G1 X1.9S0
G1 X0.6S200
G1 X3.7S0
G1 X0.6S200
G1 X2.5S0
G1 Y0.1
G1 X-2.5
G1 X-0.6S200
G1 X-3.7S0
G1 X-0.6S200
G1 X-1.9S0
G1 X-0.6S200
G1 X-1.3S0
G1 X-0.5S200
G1 X-1.9S0
G1 X-4.3S200
G1 X-1S0
G1 X-0.2S200
G1 X-0.7S0
G1 X-0.6S200
G1 X-1.9S0
G1 X-0.5S200
G1 X-0.6S0
G1 X-1.3S200
G1 X-0.6S0
G1 X-1.9S200
G1 X-1.2S0
G1 X-0.6S200
G1 X-2.5S0
G1 Y0.1
G1 X2.5
G1 X0.7S200
G1 X1.2S0
G1 X1.8S200
G1 X0.6S0
G1 X1.2S200
G1 X0.7S0
G1 X0.5S200
G1 X1.9S0
G1 X0.6S200
G1 X0.6S0
G1 X0.4S200
G1 X1.1S0
G1 X3.9S200
G1 X2.1S0
G1 X0.5S200
G1 X1.4S0
G1 X0.5S200
G1 X1.9S0
G1 X0.6S200
G1 X3.7S0
G1 X0.6S200
G1 X2.5S0
G1 Y0.1
G1 X-2.5
G1 X-0.6S200
G1 X-0.6S0
G1 X-0.6S200
G1 X-0.7S0
G1 X-1.8S200
G1 X-0.7S0
G1 X-1.1S200
G1 X-3.1S0
G1 X-0.6S200
G1 X-1.8S0
G1 X-3.3S200
G1 X-1.3S0
G1 X-1S200
G1 X-1.3S0
G1 X-0.6S200
G1 X-0.7S0
G1 X-0.5S200
G1 X-1.4S0
G1 X-1.1S200
G1 X-2.5S0
G1 X-1.2S200
G1 X-0.7S0
G1 X-1.1S200
G1 X-2.5S0
G1 Y0.1
G1 X2.5
G1 X1.1S200
G1 X0.7S0
G1 X1.2S200
G1 X2.5S0
G1 X1.1S200
G1 X1.4S0
G1 X0.5S200
G1 X0.7S0
G1 X0.6S200
G1 X1.3S0
G1 X1.1S200
G1 X6.3S0
G1 X0.6S200
G1 X3.1S0
G1 X1.1S200
G1 X0.7S0
G1 X1.8S200
G1 X0.7S0
G1 X0.6S200
G1 X0.6S0
G1 X0.6S200
G1 X2.5S0
G1 Y0.1
G1 X-2.5
G1 X-0.6S200
G1 X-0.6S0
G1 X-0.6S200
G1 X-0.7S0
G1 X-1.8S200
G1 X-0.7S0
G1 X-1.1S200
G1 X-3.1S0
G1 X-0.6S200
G1 X-6.2S0
G1 X-1.2S200
G1 X-1.3S0
G1 X-0.6S200
G1 X-0.7S0
G1 X-0.5S200
G1 X-1.4S0
G1 X-1.1S200
G1 X-2.5S0
G1 X-1.2S200
G1 X-0.7S0
G1 X-1.1S200
G1 X-2.5S0
G1 Y0.1
G1 X2.5
G1 X1.1S200
G1 X0.7S0
G1 X1.2S200
G1 X2.5S0
G1 X1.1S200
G1 X1.4S0
G1 X0.5S200
G1 X0.7S0
G1 X0.6S200
G1 X1.3S0
G1 X1.2S200
G1 X6.2S0
G1 X0.6S200
G1 X3.1S0
G1 X1.1S200
G1 X0.7S0
G1 X1.8S200
G1 X0.7S0
G1 X0.6S200
G1 X0.6S0
G1 X0.6S200
G1 X2.5S0
G1 Y0.1
G1 X-2.5
G1 X-0.6S200
G1 X-0.6S0
G1 X-0.6S200
G1 X-0.7S0
G1 X-1.8S200
G1 X-0.7S0
G1 X-1.1S200
G1 X-3.1S0
G1 X-0.6S200
G1 X-6.2S0
G1 X-1.2S200
G1 X-1.3S0
G1 X-0.6S200
G1 X-0.7S0
G1 X-0.5S200
G1 X-1.4S0
G1 X-1.1S200
G1 X-2.5S0
G1 X-1.2S200
G1 X-0.7S0
G1 X-1.1S200
G1 X-2.5S0
G1 Y0.1
G1 X2.5
G1 X1.1S200
G1 X0.7S0
G1 X1.2S200
G1 X2.5S0
G1 X1.3S200
G1 X1.2S0
G1 X0.5S200
G1 X0.7S0
G1 X0.6S200
G1 X1.3S0
G1 X1.2S200
G1 X6.2S0
G1 X0.6S200
G1 X3.1S0
G1 X1.1S200
G1 X0.7S0
G1 X1.8S200
G1 X0.7S0
G1 X0.6S200
G1 X0.6S0
G1 X0.6S200
G1 X2.5S0
G1 X1.8Y0.1
G1 X-2.5
G1 X-1.2S200
G1 X-0.6S0
G1 X-0.6S200
G1 X-1.2S0
G1 X-0.6S200
G1 X-0.8S0
G1 X-1.1S200
G1 X-0.7S0
G1 X-1.1S200
G1 X-1.9S0
G1 X-0.6S200
G1 X-0.6S0
G1 X-0.6S200
G1 X-5.6S0
G1 X-1.2S200
G1 X-0.7S0
G1 X-0.6S200
G1 X-0.6S0
G1 X-0.6S200
G1 X-0.7S0
G1 X-0.5S200
G1 X-0.6S0
G1 X-1.3S200
G1 X-0.6S0
G1 X-0.6S200
G1 X-0.6S0
G1 X-1.3S200
G1 X-0.6S0
G1 X-0.6S200
G1 X-0.7S0
G1 X-0.6S200
G1 X-2.5S0
G1 Y0.1
G1 X2.5
G1 X0.6S200
G1 X0.7S0
G1 X0.6S200
G1 X0.6S0
G1 X1.3S200
G1 X0.6S0
G1 X0.6S200
G1 X0.6S0
G1 X1.3S200
G1 X0.6S0
G1 X0.5S200
G1 X0.7S0
G1 X0.6S200
G1 X0.6S0
G1 X0.6S200
G1 X0.7S0
G1 X1.2S200
G1 X5.6S0
G1 X0.6S200
G1 X0.6S0
G1 X0.6S200
G1 X1.9S0
G1 X1.1S200
G1 X0.7S0
G1 X1.1S200
G1 X0.8S0
G1 X0.6S200
G1 X1.2S0
G1 X0.6S200
G1 X0.6S0
G1 X1.2S200
G1 X2.5S0
G1 Y0.1
G1 X-2.5
G1 X-1.2S200
G1 X-0.6S0
G1 X-0.6S200
G1 X-1.2S0
G1 X-0.6S200
G1 X-0.8S0
G1 X-1.1S200
G1 X-0.7S0
G1 X-1.1S200
G1 X-1.9S0
G1 X-0.6S200
G1 X-0.6S0
G1 X-0.6S200
G1 X-1.4S0
G1 X-0.2S200
G1 X-4S0
G1 X-1.2S200
G1 X-0.7S0
G1 X-0.6S200
G1 X-0.6S0
G1 X-0.6S200
G1 X-0.7S0
G1 X-0.5S200
G1 X-0.6S0
G1 X-1.3S200
G1 X-0.6S0
G1 X-0.6S200
G1 X-0.6S0
G1 X-1.3S200
G1 X-0.6S0
G1 X-0.6S200
G1 X-0.7S0
G1 X-0.6S200
G1 X-2.5S0
G1 Y0.1
G1 X2.5
G1 X0.6S200
G1 X0.7S0
G1 X0.6S200
G1 X0.6S0
G1 X1.3S200
G1 X0.6S0
G1 X0.6S200
G1 X0.6S0
G1 X1.3S200
G1 X0.6S0
G1 X0.5S200
G1 X0.7S0
G1 X0.6S200
G1 X0.6S0
G1 X0.6S200
G1 X0.7S0
G1 X1.2S200
G1 X3.9S0
G1 X0.3S200
G1 X1.4S0
G1 X0.6S200
G1 X0.6S0
G1 X0.6S200
G1 X1.9S0
G1 X1.1S200
G1 X0.7S0
G1 X1.1S200
G1 X0.8S0
G1 X0.6S200
G1 X1.2S0
G1 X0.6S200
G1 X0.6S0
G1 X1.2S200
G1 X2.5S0
G1 Y0.1
G1 X-2.5
G1 X-1.2S200
G1 X-0.6S0
G1 X-0.6S200
G1 X-1.2S0
G1 X-0.6S200
G1 X-0.8S0
G1 X-1.1S200
G1 X-0.7S0
G1 X-1.1S200
G1 X-1.9S0
G1 X-0.6S200
G1 X-0.6S0
G1 X-0.6S200
G1 X-1.4S0
G1 X-0.6S200
G1 X-3.6S0
G1 X-1.2S200
G1 X-0.7S0
G1 X-0.6S200
G1 X-0.6S0
G1 X-0.6S200
G1 X-0.7S0
G1 X-0.5S200
G1 X-0.6S0
G1 X-1.3S200
G1 X-0.6S0
G1 X-0.6S200
G1 X-0.6S0
G1 X-1.3S200
G1 X-0.6S0
G1 X-0.6S200
G1 X-0.7S0
G1 X-0.6S200
G1 X-2.5S0
G1 Y0.1
G1 X2.5
G1 X0.6S200
G1 X0.7S0
G1 X0.6S200
G1 X0.6S0
G1 X1.3S200
G1 X0.6S0
G1 X0.6S200
G1 X0.6S0
G1 X1.3S200
G1 X0.6S0
G1 X0.5S200
G1 X0.7S0
G1 X0.6S200
G1 X0.6S0
G1 X0.6S200
G1 X0.7S0
G1 X1.2S200
G1 X3.3S0
G1 X0.9S200
G1 X1.4S0
G1 X0.6S200
G1 X0.6S0
G1 X0.6S200
G1 X1.9S0
G1 X1.1S200
G1 X0.7S0
G1 X1.1S200
G1 X0.8S0
G1 X0.6S200
G1 X1.2S0
G1 X0.6S200
G1 X0.6S0
G1 X1.2S200
G1 X2.5S0
G1 Y0.1
G1 X-2.5
G1 X-1.2S200
G1 X-1.3S0
G1 X-2.4S200
G1 X-0.6S0
G1 X-0.6S200
G1 X-0.7S0
G1 X-0.5S200
G1 X-0.7S0
G1 X-1.2S200
G1 X-0.6S0
G1 X-0.6S200
G1 X-1.2S0
G1 X-2.5S200
G1 X-2.5S0
G1 X-0.6S200
G1 X-1.9S0
G1 X-1.8S200
G1 X-0.7S0
G1 X-1.2S200
G1 X-0.7S0
G1 X-0.5S200
G1 X-0.6S0
G1 X-1.3S200
G1 X-1.2S0
G1 X-0.6S200
G1 X-0.6S0
G1 X-0.6S200
G1 X-0.7S0
G1 X-0.5S200
G1 X-2.5S0
G1 Y0.1
G1 X2.5
G1 X0.5S200
G1 X0.7S0
G1 X0.6S200
G1 X0.6S0
G1 X0.6S200
G1 X1.3S0
G1 X1.2S200
G1 X0.6S0
G1 X0.5S200
G1 X0.8S0
G1 X1.1S200
G1 X0.7S0
G1 X1.8S200
G1 X1.9S0
G1 X0.6S200
G1 X2.5S0
G1 X2.5S200
G1 X1.2S0
G1 X0.6S200
G1 X0.6S0
G1 X1.2S200
G1 X0.7S0
G1 X0.5S200
G1 X0.7S0
G1 X0.6S200
G1 X0.6S0
G1 X2.4S200
G1 X1.3S0
G1 X1.2S200
G1 X2.5S0
G1 Y0.1
G1 X-2.5
G1 X-1.2S200
G1 X-1.3S0
G1 X-2.4S200
G1 X-0.6S0
G1 X-0.6S200
G1 X-0.7S0
G1 X-0.5S200
G1 X-0.7S0
G1 X-1.2S200
G1 X-0.6S0
G1 X-0.6S200
G1 X-1.2S0
G1 X-2.5S200
G1 X-2.5S0
G1 X-0.6S200
G1 X-1.9S0
G1 X-1.8S200
G1 X-0.7S0
G1 X-1.1S200
G1 X-0.8S0
G1 X-0.5S200
G1 X-0.6S0
G1 X-1.2S200
G1 X-1.3S0
G1 X-0.6S200
G1 X-0.6S0
G1 X-0.6S200
G1 X-0.7S0
G1 X-0.5S200
G1 X-2.5S0
G1 Y0.1
G1 X2.5
G1 X0.5S200
G1 X0.7S0
G1 X0.6S200
G1 X0.6S0
G1 X0.6S200
G1 X1.3S0
G1 X1.2S200
G1 X0.6S0
G1 X0.5S200
G1 X0.8S0
G1 X1.1S200
G1 X0.7S0
G1 X1.8S200
G1 X1.9S0
G1 X0.6S200
G1 X2.5S0
G1 X2.5S200
G1 X1.2S0
G1 X0.6S200
G1 X0.6S0
G1 X1.2S200
G1 X0.7S0
G1 X0.5S200
G1 X0.7S0
G1 X0.6S200
G1 X0.6S0
G1 X2.4S200
G1 X1.3S0
G1 X1.2S200
G1 X2.5S0
G1 Y0.1
G1 X-2.5
G1 X-1.2S200
G1 X-1.3S0
G1 X-2.4S200
G1 X-0.6S0
G1 X-0.6S200
G1 X-0.7S0
G1 X-0.5S200
G1 X-0.7S0
G1 X-1.2S200
G1 X-0.6S0
G1 X-0.6S200
G1 X-1.2S0
G1 X-2.5S200
G1 X-2.5S0
G1 X-0.6S200
G1 X-1.9S0
G1 X-1.8S200
G1 X-0.7S0
G1 X-1.1S200
G1 X-0.8S0
G1 X-0.5S200
G1 X-0.6S0
G1 X-1.2S200
G1 X-1.3S0
G1 X-0.6S200
G1 X-0.6S0
G1 X-0.6S200
G1 X-0.7S0
G1 X-0.5S200
G1 X-2.5S0
G1 Y0.1
G1 X2.5
G1 X0.5S200
G1 X0.7S0
G1 X0.6S200
G1 X0.6S0
G1 X0.6S200
G1 X1.3S0
G1 X1.2S200
G1 X0.6S0
G1 X0.5S200
G1 X0.8S0
G1 X1.1S200
G1 X0.7S0
G1 X1.8S200
G1 X1.9S0
G1 X0.6S200
G1 X2.5S0
G1 X2.5S200
G1 X1.2S0
G1 X0.6S200
G1 X0.6S0
G1 X1.2S200
G1 X0.7S0
G1 X0.5S200
G1 X0.7S0
G1 X0.6S200
G1 X0.6S0
G1 X2.4S200
G1 X1.3S0
G1 X1.2S200
G1 X2.5S0
G1 Y0.1
G1 X-2.5
G1 X-0.5S200
G1 X-2S0
G1 X-2.4S200
G1 X-1.2S0
G1 X-1.2S200
G1 X-2S0
G1 X-0.5S200
G1 X-0.7S0
G1 X-0.5S200
G1 X-0.6S0
G1 X-1.3S200
G1 X-0.7S0
G1 X-0.5S200
G1 X-4.4S0
G1 X-0.5S200
G1 X-2S0
G1 X-1.1S200
G1 X-2S0
G1 X-0.5S200
G1 X-0.6S0
G1 X-2.5S200
G1 X-0.6S0
G1 X-1.3S200
G1 X-2.5S0
G1 Y0.1
G1 X2.5
G1 X1.3S200
G1 X0.6S0
G1 X2.5S200
G1 X0.6S0
G1 X0.5S200
G1 X2S0
G1 X1.1S200
G1 X2S0
G1 X0.5S200
G1 X4.4S0
G1 X0.5S200
G1 X0.7S0
G1 X1.3S200
G1 X0.6S0
G1 X0.5S200
G1 X0.7S0
G1 X0.5S200
G1 X2S0
G1 X1.2S200
G1 X1.2S0
G1 X2.4S200
G1 X2S0
G1 X0.5S200
G1 X2.5S0
G1 Y0.1
G1 X-2.5
G1 X-0.5S200
G1 X-2S0
G1 X-2.4S200
G1 X-1.2S0
G1 X-1.2S200
G1 X-2S0
G1 X-0.5S200
G1 X-0.7S0
G1 X-0.5S200
G1 X-0.6S0
G1 X-1.3S200
G1 X-0.7S0
G1 X-0.5S200
G1 X-4.4S0
G1 X-0.5S200
G1 X-2S0
G1 X-1.1S200
G1 X-2S0
G1 X-0.5S200
G1 X-0.6S0
G1 X-2.5S200
G1 X-0.6S0
G1 X-1.3S200
G1 X-2.5S0
G1 Y0.1
G1 X2.5
G1 X1.3S200
G1 X0.6S0
G1 X2.5S200
G1 X0.6S0
G1 X0.5S200
G1 X2S0
G1 X1.1S200
G1 X2S0
G1 X0.5S200
G1 X4.4S0
G1 X0.5S200
G1 X0.7S0
G1 X1.3S200
G1 X0.6S0
G1 X0.5S200
G1 X0.7S0
G1 X0.5S200
G1 X2S0
G1 X1.2S200
G1 X1.2S0
G1 X2.4S200
G1 X2S0
G1 X0.5S200
G1 X2.5S0
G1 Y0.1
G1 X-2.5
G1 X-0.5S200
G1 X-2S0
G1 X-2.4S200
G1 X-1.2S0
G1 X-1.2S200
G1 X-2S0
G1 X-0.5S200
G1 X-0.7S0
G1 X-0.5S200
G1 X-0.6S0
G1 X-1.3S200
G1 X-0.7S0
G1 X-0.5S200
G1 X-4.4S0
G1 X-0.5S200
G1 X-2S0
G1 X-1.1S200
G1 X-2S0
G1 X-0.5S200
G1 X-0.6S0
G1 X-2.5S200
G1 X-0.6S0
G1 X-1.3S200
G1 X-2.5S0
G1 Y0.1
G1 X2.5
G1 X1.3S200
G1 X0.6S0
G1 X2.5S200
G1 X0.6S0
G1 X0.5S200
G1 X2S0
G1 X1.1S200
G1 X2S0
G1 X0.5S200
G1 X4.4S0
G1 X0.5S200
G1 X0.7S0
G1 X1.3S200
G1 X0.6S0
G1 X0.5S200
G1 X0.7S0
G1 X0.5S200
G1 X2S0
G1 X1.2S200
G1 X1.2S0
G1 X2.4S200
G1 X2S0
G1 X0.5S200
G1 X2.5S0
G1 X-0.5Y0.1
G1 X-2.5
G1 X-0.7S200
G1 X-0.6S0
G1 X-1.2S200
G1 X-1.3S0
G1 X-1.8S200
G1 X-3.2S0
G1 X-0.5S200
G1 X-1.8S0
G1 X-1.9S200
G1 X-0.6S0
G1 X-0.6S200
G1 X-0.6S0
G1 X-0.7S200
G1 X-2.5S0
G1 X-0.6S200
G1 X-0.6S0
G1 X-1.8S200
G1 X-2.6S0
G1 X-0.5S200
G1 X-2.5S0
G1 X-2.5S200
G1 X-2.5S0
G1 Y0.1
G1 X2.5
G1 X2.5S200
G1 X2.5S0
G1 X0.5S200
G1 X2.6S0
G1 X1.8S200
G1 X0.7S0
G1 X0.5S200
G1 X2.5S0
G1 X0.7S200
G1 X0.6S0
G1 X0.6S200
G1 X0.6S0
G1 X1.9S200
G1 X1.8S0
G1 X0.5S200
G1 X3.2S0
G1 X1.8S200
G1 X1.3S0
G1 X1.2S200
G1 X0.6S0
G1 X0.7S200
G1 X2.5S0
G1 Y0.1
G1 X-2.5
G1 X-0.7S200
G1 X-0.6S0
G1 X-1.2S200
G1 X-1.3S0
G1 X-1.8S200
G1 X-3.2S0
G1 X-0.5S200
G1 X-1.8S0
G1 X-1.9S200
G1 X-0.6S0
G1 X-0.6S200
G1 X-0.6S0
G1 X-0.7S200
G1 X-2.5S0
G1 X-0.5S200
G1 X-0.7S0
G1 X-1.8S200
G1 X-2.6S0
G1 X-0.5S200
G1 X-2.5S0
G1 X-2.5S200
G1 X-2.5S0
G1 Y0.1
G1 X2.5
G1 X2.5S200
G1 X2.5S0
G1 X0.5S200
G1 X2.6S0
G1 X1.8S200
G1 X0.7S0
G1 X0.5S200
G1 X2.5S0
G1 X0.7S200
G1 X0.6S0
G1 X0.6S200
G1 X0.6S0
G1 X1.9S200
G1 X1.8S0
G1 X0.5S200
G1 X3.2S0
G1 X1.8S200
G1 X1.3S0
G1 X1.2S200
G1 X0.6S0
G1 X0.7S200
G1 X2.5S0
G1 Y0.1
G1 X-2.5
G1 X-0.7S200
G1 X-0.6S0
G1 X-1.2S200
G1 X-1.3S0
G1 X-1.8S200
G1 X-3.2S0
G1 X-0.5S200
G1 X-1.8S0
G1 X-1.9S200
G1 X-0.6S0
G1 X-0.6S200
G1 X-0.6S0
G1 X-0.7S200
G1 X-2.5S0
G1 X-0.5S200
G1 X-0.7S0
G1 X-1.8S200
G1 X-2.6S0
G1 X-0.5S200
G1 X-2.5S0
G1 X-2.5S200
G1 X-2.5S0
G1 Y0.1
G1 X2.5
G1 X2.5S200
G1 X2.5S0
G1 X0.5S200
G1 X2.6S0
G1 X1.8S200
G1 X0.7S0
G1 X0.5S200
G1 X2.5S0
G1 X0.7S200
G1 X0.6S0
G1 X0.6S200
G1 X0.6S0
G1 X1.9S200
G1 X1.8S0
G1 X0.5S200
G1 X3.2S0
G1 X1.8S200
G1 X1.3S0
G1 X1.2S200
G1 X0.6S0
G1 X0.7S200
G1 X2.5S0
G1 Y0.1
G1 X-2.5
G1 X-0.7S200
G1 X-0.6S0
G1 X-1.2S200
G1 X-1.3S0
G1 X-1.8S200
G1 X-3.2S0
G1 X-0.5S200
G1 X-1.8S0
G1 X-1.9S200
G1 X-0.6S0
G1 X-0.7S200
G1 X-0.5S0
G1 X-0.7S200
G1 X-1.7S0
G1 X-0.2S200
G1 X-0.6S0
G1 X-0.6S200
G1 X-0.5S0
G1 X-1.9S200
G1 X-2.6S0
G1 X-0.5S200
G1 X-1.2S0
G1 X-0.1S200
G1 X-1.2S0
G1 X-2.5S200
G1 X-2.5S0
G1 Y0.1
G1 X2.5
G1 X4.4S200
G1 X3.1S0
G1 X0.5S200
G1 X1.3S0
G1 X3.1S200
G1 X1.9S0
G1 X0.6S200
G1 X0.6S0
G1 X1.1S200
G1 X2S0
G1 X0.5S200
G1 X1.9S0
G1 X0.6S200
G1 X1.3S0
G1 X0.6S200
G1 X1.9S0
G1 X0.6S200
G1 X1.8S0
G1 X1.3S200
G1 X2.5S0
G1 Y0.1
G1 X-2.5
G1 X-1.3S200
G1 X-1.8S0
G1 X-0.6S200
G1 X-1.9S0
G1 X-0.6S200
G1 X-1.3S0
G1 X-0.6S200
G1 X-1.9S0
G1 X-0.5S200
G1 X-2S0
G1 X-1.1S200
G1 X-0.6S0
G1 X-0.6S200
G1 X-1.9S0
G1 X-3.1S200
G1 X-1.3S0
G1 X-0.5S200
G1 X-3.1S0
G1 X-4.4S200
G1 X-2.5S0
G1 Y0.1
G1 X2.5
G1 X4.4S200
G1 X3.1S0
G1 X0.5S200
G1 X1.3S0
G1 X3.1S200
G1 X1.9S0
G1 X0.6S200
G1 X0.6S0
G1 X1.1S200
G1 X2S0
G1 X0.5S200
G1 X1.9S0
G1 X0.6S200
G1 X1.3S0
G1 X0.6S200
G1 X1.9S0
G1 X0.6S200
G1 X1.8S0
G1 X1.3S200
G1 X2.5S0
G1 Y0.1
G1 X-2.5
G1 X-1.3S200
G1 X-1.8S0
G1 X-0.6S200
G1 X-1.9S0
G1 X-0.6S200
G1 X-1.3S0
G1 X-0.6S200
G1 X-1.9S0
G1 X-0.5S200
G1 X-2S0
G1 X-1.1S200
G1 X-0.6S0
G1 X-0.6S200
G1 X-1.9S0
G1 X-3.1S200
G1 X-1.3S0
G1 X-0.5S200
G1 X-3.1S0
G1 X-4.4S200
G1 X-2.5S0
G1 Y0.1
G1 X2.5
G1 X4.4S200
G1 X3.1S0
G1 X0.5S200
G1 X1.3S0
G1 X3.1S200
G1 X1.9S0
G1 X0.6S200
G1 X0.6S0
G1 X1.1S200
G1 X2S0
G1 X0.5S200
G1 X1.9S0
G1 X0.6S200
G1 X1.3S0
G1 X0.6S200
G1 X1.9S0
G1 X0.6S200
G1 X1.8S0
G1 X1.3S200
G1 X2.5S0
G1 Y0.1
G1 X-2.5
G1 X-1.3S200
G1 X-1.8S0
G1 X-0.6S200
G1 X-1.9S0
G1 X-0.6S200
G1 X-1.3S0
G1 X-0.5S200
G1 X-2S0
G1 X-0.5S200
G1 X-2S0
G1 X-1.1S200
G1 X-0.6S0
G1 X-0.7S200
G1 X-1.8S0
G1 X-3.1S200
G1 X-1.3S0
G1 X-0.6S200
G1 X-3S0
G1 X-4.3S200
G1 X-2.5S0
G1 X0.6Y0.1
G1 X2.5
G1 X2.3S200
G1 X0.8S0
G1 X1.2S200
G1 X1.2S0
G1 X1.8S200
G1 X0.7S0
G1 X0.6S200
G1 X1.9S0
G1 X1.2S200
G1 X0.6S0
G1 X1.3S200
G1 X1.8S0
G1 X0.5S200
G1 X3.2S0
G1 X0.5S200
G1 X2.6S0
G1 X0.6S200
G1 X2.5S0
G1 X1.8S200
G1 X0.6S0
G1 X1.2S200
G1 X2.5S0
G1 Y0.1
G1 X-2.5
G1 X-1.2S200
G1 X-0.6S0
G1 X-1.8S200
G1 X-2.5S0
G1 X-0.6S200
G1 X-2.6S0
G1 X-0.5S200
G1 X-3.2S0
G1 X-0.5S200
G1 X-1.8S0
G1 X-1.3S200
G1 X-0.6S0
G1 X-1.2S200
G1 X-1.9S0
G1 X-0.6S200
G1 X-0.7S0
G1 X-1.8S200
G1 X-1.2S0
G1 X-1.2S200
G1 X-0.8S0
G1 X-2.3S200
G1 X-2.5S0
G1 Y0.1
G1 X2.5
G1 X2.3S200
G1 X0.8S0
G1 X1.2S200
G1 X1.2S0
G1 X1.8S200
G1 X0.7S0
G1 X0.6S200
G1 X1.9S0
G1 X1.2S200
G1 X0.6S0
G1 X1.3S200
G1 X1.8S0
G1 X0.5S200
G1 X3.2S0
G1 X0.5S200
G1 X2.6S0
G1 X0.6S200
G1 X2.5S0
G1 X1.8S200
G1 X0.6S0
G1 X1.2S200
G1 X2.5S0
G1 Y0.1
G1 X-2.5
G1 X-1.2S200
G1 X-0.6S0
G1 X-1.8S200
G1 X-2.5S0
G1 X-0.6S200
G1 X-2.6S0
G1 X-0.5S200
G1 X-3.2S0
G1 X-0.5S200
G1 X-1.8S0
G1 X-1.3S200
G1 X-0.6S0
G1 X-1.2S200
G1 X-1.9S0
G1 X-0.6S200
G1 X-0.7S0
G1 X-1.8S200
G1 X-1.2S0
G1 X-1.2S200
G1 X-0.8S0
G1 X-2.3S200
G1 X-2.5S0
G1 Y0.1
G1 X2.5
G1 X2.3S200
G1 X0.8S0
G1 X1.2S200
G1 X1.2S0
G1 X1.8S200
G1 X0.7S0
G1 X0.6S200
G1 X1.9S0
G1 X1.2S200
G1 X0.6S0
G1 X1.3S200
G1 X1.8S0
G1 X0.5S200
G1 X3.2S0
G1 X0.5S200
G1 X2.6S0
G1 X0.6S200
G1 X2.5S0
G1 X1.8S200
G1 X0.6S0
G1 X1.2S200
G1 X2.5S0
G1 Y0.1
G1 X-2.5
G1 X-1.2S200
G1 X-0.6S0
G1 X-1.8S200
G1 X-2.5S0
G1 X-0.6S200
G1 X-2.6S0
G1 X-0.5S200
G1 X-3.2S0
G1 X-0.5S200
G1 X-1.8S0
G1 X-1.3S200
G1 X-0.6S0
G1 X-1.2S200
G1 X-1.9S0
G1 X-0.6S200
G1 X-0.7S0
G1 X-1.8S200
G1 X-1.2S0
G1 X-1.3S200
G1 X-0.6S0
G1 X-2.4S200
G1 X-2.5S0
G1 Y0.1
G1 X2.5
G1 X0.6S200
G1 X0.6S0
G1 X0.6S200
G1 X0.6S0
G1 X0.7S200
G1 X1.2S0
G1 X0.5S200
G1 X1.4S0
G1 X0.6S200
G1 X0.6S0
G1 X0.5S200
G1 X1.3S0
G1 X1.9S200
G1 X1.2S0
G1 X0.5S200
G1 X2S0
G1 X0.5S200
G1 X1.3S0
G1 X0.7S200
G1 X1.2S0
G1 X3.6S200
G1 X0.7S0
G1 X3.1S200
G1 X1.2S0
G1 X1.8S200
G1 X2.5S0
G1 Y0.1
G1 X-2.5
G1 X-1.8S200
G1 X-1.2S0
G1 X-3.1S200
G1 X-0.7S0
G1 X-3.6S200
G1 X-1.2S0
G1 X-0.7S200
G1 X-1.3S0
G1 X-0.5S200
G1 X-2S0
G1 X-0.5S200
G1 X-1.2S0
G1 X-1.9S200
G1 X-1.3S0
G1 X-0.5S200
G1 X-0.6S0
G1 X-0.6S200
G1 X-1.4S0
G1 X-0.5S200
G1 X-1.2S0
G1 X-0.7S200
G1 X-0.6S0
G1 X-0.6S200
G1 X-0.6S0
G1 X-0.6S200
G1 X-2.5S0
G1 Y0.1
G1 X2.5
G1 X0.6S200
G1 X0.6S0
G1 X0.6S200
G1 X0.6S0
G1 X0.7S200
G1 X1.2S0
G1 X0.5S200
G1 X1.4S0
G1 X0.6S200
G1 X0.6S0
G1 X0.5S200
G1 X1.3S0
G1 X1.9S200
G1 X1.2S0
G1 X0.5S200
G1 X2S0
G1 X0.5S200
G1 X1.3S0
G1 X0.7S200
G1 X1.2S0
G1 X3.6S200
G1 X0.7S0
G1 X3.1S200
G1 X1.2S0
G1 X1.8S200
G1 X2.5S0
G1 Y0.1
G1 X-2.5
G1 X-1.8S200
G1 X-1.2S0
G1 X-3.1S200
G1 X-0.7S0
G1 X-3.6S200
G1 X-1.2S0
G1 X-0.7S200
G1 X-1.3S0
G1 X-0.5S200
G1 X-2S0
G1 X-0.5S200
G1 X-1.2S0
G1 X-1.9S200
G1 X-1.3S0
G1 X-0.5S200
G1 X-0.6S0
G1 X-0.6S200
G1 X-1.4S0
G1 X-0.5S200
G1 X-1.2S0
G1 X-0.7S200
G1 X-0.6S0
G1 X-0.6S200
G1 X-0.6S0
G1 X-0.6S200
G1 X-2.5S0
G1 Y0.1
G1 X2.5
G1 X0.6S200
G1 X0.6S0
G1 X0.6S200
G1 X0.6S0
G1 X0.7S200
G1 X1.2S0
G1 X0.5S200
G1 X1.4S0
G1 X0.6S200
G1 X0.6S0
G1 X0.5S200
G1 X1.3S0
G1 X1.9S200
G1 X1.2S0
G1 X0.5S200
G1 X2S0
G1 X0.5S200
G1 X1.3S0
G1 X0.7S200
G1 X1.2S0
G1 X3.6S200
G1 X0.7S0
G1 X3.1S200
G1 X1.2S0
G1 X1.8S200
G1 X2.5S0
G1 Y0.1
G1 X-2.5
G1 X-1.8S200
G1 X-1.2S0
G1 X-3.1S200
G1 X-0.7S0
G1 X-3.6S200
G1 X-1.2S0
G1 X-0.7S200
G1 X-1.3S0
G1 X-0.5S200
G1 X-2S0
G1 X-0.5S200
G1 X-1.2S0
G1 X-1.9S200
G1 X-1.3S0
G1 X-0.5S200
G1 X-0.6S0
G1 X-0.7S200
G1 X-1.3S0
G1 X-0.5S200
G1 X-1.2S0
G1 X-0.7S200
G1 X-0.6S0
G1 X-0.6S200
G1 X-0.6S0
G1 X-0.6S200
G1 X-2.5S0
G1 X-1.2Y0.1
G1 X2.5
G1 X0.5S200
G1 X0.7S0
G1 X0.6S200
G1 X3.7S0
G1 X5.5S200
G1 X0.7S0
G1 X0.6S200
G1 X1.8S0
G1 X0.7S200
G1 X0.6S0
G1 X0.6S200
G1 X3.1S0
G1 X0.5S200
G1 X1.3S0
G1 X0.6S200
G1 X0.7S0
G1 X0.6S200
G1 X2.4S0
G1 X2.4S200
G1 X0.7S0
G1 X1.3S200
G1 X2.5S0
G1 Y0.1
G1 X-2.5
G1 X-1.3S200
G1 X-0.7S0
G1 X-2.4S200
G1 X-2.4S0
G1 X-0.6S200
G1 X-0.7S0
G1 X-0.6S200
G1 X-1.3S0
G1 X-0.5S200
G1 X-3.1S0
G1 X-0.6S200
G1 X-0.6S0
G1 X-0.7S200
G1 X-1.8S0
G1 X-0.6S200
G1 X-0.7S0
G1 X-5.5S200
G1 X-3.7S0
G1 X-0.6S200
G1 X-0.7S0
G1 X-0.5S200
G1 X-2.5S0
G1 Y0.1
G1 X2.5
G1 X0.5S200
G1 X0.7S0
G1 X0.6S200
G1 X3.7S0
G1 X5.5S200
G1 X0.7S0
G1 X0.6S200
G1 X1.8S0
G1 X0.7S200
G1 X0.6S0
G1 X0.6S200
G1 X3.1S0
G1 X0.5S200
G1 X1.3S0
G1 X0.6S200
G1 X0.7S0
G1 X0.6S200
G1 X2.4S0
G1 X2.4S200
G1 X0.7S0
G1 X1.3S200
G1 X2.5S0
G1 Y0.1
G1 X-2.5
G1 X-1.3S200
G1 X-0.7S0
G1 X-2.4S200
G1 X-2.4S0
G1 X-0.6S200
G1 X-0.7S0
G1 X-0.6S200
G1 X-1.3S0
G1 X-0.5S200
G1 X-3.1S0
G1 X-0.6S200
G1 X-0.6S0
G1 X-0.7S200
G1 X-1.8S0
G1 X-0.6S200
G1 X-0.7S0
G1 X-5.5S200
G1 X-3.7S0
G1 X-0.6S200
G1 X-0.7S0
G1 X-0.5S200
G1 X-2.5S0
G1 Y0.1
G1 X2.5
G1 X0.5S200
G1 X0.7S0
G1 X0.6S200
G1 X3.7S0
G1 X5.5S200
G1 X0.7S0
G1 X0.6S200
G1 X1.8S0
G1 X0.7S200
G1 X0.6S0
G1 X0.6S200
G1 X3.1S0
G1 X0.5S200
G1 X1.3S0
G1 X0.6S200
G1 X0.7S0
G1 X0.6S200
G1 X2.4S0
G1 X2.4S200
G1 X0.7S0
G1 X1.3S200
G1 X2.5S0
G1 Y0.1
G1 X-2.5
G1 X-1.3S200
G1 X-0.7S0
G1 X-2.4S200
G1 X-2.4S0
G1 X-0.6S200
G1 X-0.7S0
G1 X-0.6S200
G1 X-1.3S0
G1 X-0.5S200
G1 X-3.1S0
G1 X-0.6S200
G1 X-0.6S0
G1 X-0.7S200
G1 X-1.8S0
G1 X-0.6S200
G1 X-0.7S0
G1 X-5.5S200
G1 X-3.7S0
G1 X-0.6S200
G1 X-0.7S0
G1 X-0.5S200
G1 X-2.5S0
G1 Y0.1
G1 X2.5
G1 X0.5S200
G1 X0.7S0
G1 X4.8S200
G1 X1.3S0
G1 X1.2S200
G1 X0.7S0
G1 X3.1S200
G1 X0.6S0
G1 X0.6S200
G1 X1.3S0
G1 X1.2S200
G1 X0.6S0
G1 X0.5S200
G1 X1.4S0
G1 X3S200
G1 X0.7S0
G1 X0.6S200
G1 X1.2S0
G1 X0.6S200
G1 X1.3S0
G1 X0.6S200
G1 X0.6S0
G1 X1.2S200
G1 X0.6S0
G1 X0.7S200
G1 X2.5S0
G1 Y0.1
G1 X-2.5
G1 X-0.7S200
G1 X-0.6S0
G1 X-1.2S200
G1 X-0.6S0
G1 X-0.6S200
G1 X-1.3S0
G1 X-0.6S200
G1 X-1.2S0
G1 X-0.6S200
G1 X-0.7S0
G1 X-3S200
G1 X-1.4S0
G1 X-0.5S200
G1 X-0.6S0
G1 X-1.2S200
G1 X-1.3S0
G1 X-0.6S200
G1 X-0.6S0
G1 X-3.1S200
G1 X-0.7S0
G1 X-1.1S200
G1 X-1.4S0
G1 X-4.8S200
G1 X-0.7S0
G1 X-0.5S200
G1 X-2.5S0
G1 Y0.1
G1 X2.5
G1 X0.5S200
G1 X0.7S0
G1 X4.8S200
G1 X1.4S0
G1 X1.1S200
G1 X0.7S0
G1 X3.1S200
G1 X0.6S0
G1 X0.6S200
G1 X1.3S0
G1 X1.2S200
G1 X0.6S0
G1 X0.5S200
G1 X1.4S0
G1 X3S200
G1 X0.7S0
G1 X0.6S200
G1 X1.2S0
G1 X0.6S200
G1 X1.3S0
G1 X0.6S200
G1 X0.6S0
G1 X1.2S200
G1 X0.6S0
G1 X0.7S200
G1 X2.5S0
G1 Y0.1
G1 X-2.5
G1 X-0.7S200
G1 X-0.6S0
G1 X-1.2S200
G1 X-0.6S0
G1 X-0.6S200
G1 X-1.3S0
G1 X-0.6S200
G1 X-1.2S0
G1 X-0.6S200
G1 X-0.7S0
G1 X-3S200
G1 X-1.4S0
G1 X-0.5S200
G1 X-0.6S0
G1 X-1.2S200
G1 X-1.3S0
G1 X-0.6S200
G1 X-0.6S0
G1 X-3.1S200
G1 X-0.7S0
G1 X-1.1S200
G1 X-1.4S0
G1 X-4.8S200
G1 X-0.7S0
G1 X-0.5S200
G1 X-2.5S0
G1 Y0.1
G1 X2.5
G1 X0.5S200
G1 X0.7S0
G1 X4.8S200
G1 X1.4S0
G1 X1.1S200
G1 X0.7S0
G1 X3.1S200
G1 X0.6S0
G1 X0.6S200
G1 X1.3S0
G1 X1.2S200
G1 X0.6S0
G1 X0.5S200
G1 X1.4S0
G1 X3S200
G1 X0.7S0
G1 X0.6S200
G1 X1.2S0
G1 X0.6S200
G1 X1.3S0
G1 X0.6S200
G1 X0.6S0
G1 X1.2S200
G1 X0.6S0
G1 X0.7S200
G1 X2.5S0
G1 Y0.1
G1 X-2.5
G1 X-0.7S200
G1 X-0.6S0
G1 X-1.2S200
G1 X-0.6S0
G1 X-0.6S200
G1 X-1.3S0
G1 X-0.6S200
G1 X-1.2S0
G1 X-0.6S200
G1 X-0.7S0
G1 X-3S200
G1 X-1.4S0
G1 X-0.5S200
G1 X-0.6S0
G1 X-1.2S200
G1 X-1.3S0
G1 X-0.6S200
G1 X-0.6S0
G1 X-3.1S200
G1 X-0.7S0
G1 X-1.1S200
G1 X-1.4S0
G1 X-4.8S200
G1 X-0.7S0
G1 X-0.5S200
G1 X-2.5S0
G1 Y0.1
G1 X2.5
G1 X1.8S200
G1 X0.6S0
G1 X1.2S200
G1 X3.1S0
G1 X0.7S200
G1 X2.4S0
G1 X0.7S200
G1 X1.1S0
G1 X1.3S200
G1 X0.6S0
G1 X1.3S200
G1 X1.2S0
G1 X1.1S200
G1 X0.7S0
G1 X0.7S200
G1 X0.6S0
G1 X1.9S200
G1 X4.9S0
G1 X1.2S200
G1 X0.6S0
G1 X1.9S200
G1 X2.5S0
G1 Y0.1
G1 X-2.5
G1 X-1.9S200
G1 X-0.6S0
G1 X-1.2S200
G1 X-5.1S0
G1 X-1.7S200
G1 X-0.6S0
G1 X-0.7S200
G1 X-0.7S0
G1 X-1.1S200
G1 X-1.2S0
G1 X-1.3S200
G1 X-0.6S0
G1 X-1.2S200
G1 X-1.3S0
G1 X-0.6S200
G1 X-2.4S0
G1 X-0.7S200
G1 X-3.2S0
G1 X-1.1S200
G1 X-0.6S0
G1 X-1.8S200
G1 X-2.5S0
G1 Y0.1
G1 X2.5
G1 X1.8S200
G1 X0.6S0
G1 X1.1S200
G1 X3.2S0
G1 X0.7S200
G1 X2.4S0
G1 X0.6S200
G1 X1.3S0
G1 X1.2S200
G1 X0.6S0
G1 X1.3S200
G1 X1.2S0
G1 X1.1S200
G1 X0.7S0
G1 X0.7S200
G1 X0.6S0
G1 X1.7S200
G1 X5.1S0
G1 X1.2S200
G1 X0.6S0
G1 X1.9S200
G1 X2.5S0
G1 Y0.1
G1 X-2.5
G1 X-1.9S200
G1 X-0.6S0
G1 X-1.2S200
G1 X-5.1S0
G1 X-1.7S200
G1 X-0.6S0
G1 X-0.7S200
G1 X-0.7S0
G1 X-1.1S200
G1 X-1.2S0
G1 X-1.3S200
G1 X-0.6S0
G1 X-1.2S200
G1 X-1.3S0
G1 X-0.6S200
G1 X-2.4S0
G1 X-0.7S200
G1 X-3.2S0
G1 X-1.1S200
G1 X-0.6S0
G1 X-1.8S200
G1 X-2.5S0
G1 Y0.1
G1 X2.5
G1 X1.8S200
G1 X0.6S0
G1 X1.1S200
G1 X3.2S0
G1 X0.7S200
G1 X2.4S0
G1 X0.6S200
G1 X1.3S0
G1 X1.2S200
G1 X0.6S0
G1 X1.3S200
G1 X1.2S0
G1 X1.1S200
G1 X0.7S0
G1 X0.7S200
G1 X0.6S0
G1 X1.7S200
G1 X5.1S0
G1 X1.2S200
G1 X0.6S0
G1 X1.9S200
G1 X2.5S0
G1 Y0.1
G1 X-2.5
G1 X-1.9S200
G1 X-0.6S0
G1 X-1.2S200
G1 X-5.1S0
G1 X-1.7S200
G1 X-0.6S0
G1 X-0.7S200
G1 X-0.7S0
G1 X-1.1S200
G1 X-1.2S0
G1 X-1.3S200
G1 X-0.6S0
G1 X-1.2S200
G1 X-1.3S0
G1 X-0.6S200
G1 X-2.4S0
G1 X-0.7S200
G1 X-3.2S0
G1 X-1.1S200
G1 X-0.6S0
G1 X-1.8S200
G1 X-2.5S0
G1 Y0.1
G1 X2.5
G1 X1.8S200
G1 X0.6S0
G1 X1.2S200
G1 X1.2S0
G1 X0.1S200
G1 X1.8S0
G1 X0.7S200
G1 X2.4S0
G1 X0.7S200
G1 X1.2S0
G1 X1.2S200
G1 X0.6S0
G1 X1.3S200
G1 X1.1S0
G1 X1.2S200
G1 X0.7S0
G1 X0.7S200
G1 X0.5S0
G1 X2S200
G1 X2.4S0
G1 X0.1S200
G1 X2.3S0
G1 X1.3S200
G1 X0.6S0
G1 X1.9S200
G1 X2.5S0
G1 X-2Y0.1
G1 X-2.5
G1 X-0.5S200
G1 X-0.6S0
G1 X-1.3S200
G1 X-0.6S0
G1 X-4.3S200
G1 X-0.7S0
G1 X-1.8S200
G1 X-0.7S0
G1 X-4.2S200
G1 X-1.9S0
G1 X-1.2S200
G1 X-1.3S0
G1 X-2.4S200
G1 X-0.6S0
G1 X-1.9S200
G1 X-1.2S0
G1 X-1.2S200
G1 X-2.5S0
G1 Y0.1
G1 X2.5
G1 X1.2S200
G1 X1.2S0
G1 X1.9S200
G1 X0.6S0
G1 X2.4S200
G1 X1.3S0
G1 X1.2S200
G1 X1.9S0
G1 X4.2S200
G1 X0.7S0
G1 X1.8S200
G1 X0.7S0
G1 X4.3S200
G1 X0.6S0
G1 X1.3S200
G1 X0.6S0
G1 X0.5S200
G1 X2.5S0
G1 Y0.1
G1 X-2.5
G1 X-0.5S200
G1 X-0.6S0
G1 X-1.3S200
G1 X-0.6S0
G1 X-4.3S200
G1 X-0.7S0
G1 X-1.8S200
G1 X-0.7S0
G1 X-4.2S200
G1 X-1.9S0
G1 X-1.2S200
G1 X-1.3S0
G1 X-2.4S200
G1 X-0.6S0
G1 X-1.9S200
G1 X-1.2S0
G1 X-1.2S200
G1 X-2.5S0
G1 Y0.1
G1 X2.5
G1 X1.2S200
G1 X1.2S0
G1 X1.9S200
G1 X0.6S0
G1 X2.4S200
G1 X1.3S0
G1 X1.2S200
G1 X1.9S0
G1 X4.2S200
G1 X0.7S0
G1 X1.8S200
G1 X0.7S0
G1 X4.3S200
G1 X0.6S0
G1 X1.3S200
G1 X0.6S0
G1 X0.5S200
G1 X2.5S0
G1 Y0.1
G1 X-2.5
G1 X-0.5S200
G1 X-0.6S0
G1 X-1.3S200
G1 X-0.6S0
G1 X-4.3S200
G1 X-0.7S0
G1 X-1.8S200
G1 X-0.7S0
G1 X-4.2S200
G1 X-1.9S0
G1 X-1.2S200
G1 X-1.3S0
G1 X-2.4S200
G1 X-0.6S0
G1 X-1.9S200
G1 X-1.2S0
G1 X-1.2S200
G1 X-2.5S0
G1 Y0.1
G1 X2.5
G1 X1.2S200
G1 X1.3S0
G1 X1.8S200
G1 X0.6S0
G1 X2.4S200
G1 X1.3S0
G1 X1.2S200
G1 X1.9S0
G1 X4.4S200
G1 X0.5S0
G1 X1.8S200
G1 X0.7S0
G1 X4.3S200
G1 X0.7S0
G1 X1.2S200
G1 X0.6S0
G1 X0.5S200
G1 X2.5S0
G1 X-3Y0.1
G1 X-2.5
G1 X-1.2S200
G1 X-1.3S0
G1 X-0.6S200
G1 X-0.7S0
G1 X-1.1S200
G1 X-0.6S0
G1 X-0.6S200
G1 X-0.7S0
G1 X-1.8S200
G1 X-2S0
G1 X-2.3S200
G1 X-1.9S0
G1 X-0.6S200
G1 X-0.7S0
G1 X-0.5S200
G1 X-0.6S0
G1 X-2.5S200
G1 X-2.5S0
G1 Y0.1
G1 X2.5
G1 X2.5S200
G1 X0.6S0
G1 X0.5S200
G1 X0.7S0
G1 X0.6S200
G1 X1.9S0
G1 X2.3S200
G1 X2S0
G1 X1.8S200
G1 X0.7S0
G1 X0.6S200
G1 X0.6S0
G1 X1.1S200
G1 X0.7S0
G1 X0.6S200
G1 X1.3S0
G1 X1.2S200
G1 X2.5S0
G1 Y0.1
G1 X-2.5
G1 X-1.2S200
G1 X-1.3S0
G1 X-0.6S200
G1 X-0.7S0
G1 X-1.1S200
G1 X-0.6S0
G1 X-0.6S200
G1 X-0.7S0
G1 X-1.8S200
G1 X-2S0
G1 X-2.3S200
G1 X-1.9S0
G1 X-0.6S200
G1 X-0.7S0
G1 X-0.5S200
G1 X-0.6S0
G1 X-2.5S200
G1 X-2.5S0
G1 Y0.1
G1 X2.5
G1 X2.5S200
G1 X0.6S0
G1 X0.5S200
G1 X0.7S0
G1 X0.6S200
G1 X1.9S0
G1 X2.3S200
G1 X2S0
G1 X1.8S200
G1 X0.7S0
G1 X0.6S200
G1 X0.6S0
G1 X1.1S200
G1 X0.7S0
G1 X0.6S200
G1 X1.3S0
G1 X1.2S200
G1 X2.5S0
G1 Y0.1
G1 X-2.5
G1 X-1.2S200
G1 X-1.3S0
G1 X-0.6S200
G1 X-0.7S0
G1 X-1.1S200
G1 X-0.6S0
G1 X-0.6S200
G1 X-0.7S0
G1 X-1.8S200
G1 X-2S0
G1 X-2.3S200
G1 X-1.9S0
G1 X-0.6S200
G1 X-0.7S0
G1 X-0.5S200
G1 X-0.6S0
G1 X-2.5S200
G1 X-2.5S0
G1 Y0.1
G1 X2.5
G1 X2.5S200
G1 X0.6S0
G1 X0.5S200
G1 X0.7S0
G1 X0.6S200
G1 X1.9S0
G1 X2.3S200
G1 X2S0
G1 X1.8S200
G1 X0.7S0
G1 X0.6S200
G1 X0.6S0
G1 X1.1S200
G1 X0.7S0
G1 X0.6S200
G1 X1.3S0
G1 X1.2S200
G1 X2.5S0
G1 X5.5Y0.1
G1 X-2.5
G1 X-4.2S200
G1 X-0.8S0
G1 X-0.5S200
G1 X-0.6S0
G1 X-0.6S200
G1 X-0.6S0
G1 X-0.6S200
G1 X-0.7S0
G1 X-0.6S200
G1 X-0.6S0
G1 X-0.6S200
G1 X-0.6S0
G1 X-0.6S200
G1 X-0.7S0
G1 X-0.6S200
G1 X-0.7S0
G1 X-0.5S200
G1 X-0.6S0
G1 X-0.6S200
G1 X-0.8S0
G1 X-0.5S200
G1 X-0.6S0
G1 X-0.6S200
G1 X-0.7S0
G1 X-0.5S200
G1 X-0.7S0
G1 X-0.6S200
G1 X-0.7S0
G1 X-0.5S200
G1 X-0.6S0
G1 X-0.6S200
G1 X-0.8S0
G1 X-0.5S200
G1 X-0.6S0
G1 X-0.6S200
G1 X-0.6S0
G1 X-4.3S200
G1 X-2.5S0
G1 Y0.1
G1 X2.5
G1 X4.3S200
G1 X0.6S0
G1 X0.6S200
G1 X0.6S0
G1 X0.5S200
G1 X0.8S0
G1 X0.6S200
G1 X0.6S0
G1 X0.5S200
G1 X0.7S0
G1 X0.6S200
G1 X0.7S0
G1 X0.5S200
G1 X0.7S0
G1 X0.6S200
G1 X0.6S0
G1 X0.5S200
G1 X0.8S0
G1 X0.6S200
G1 X0.6S0
G1 X0.5S200
G1 X0.7S0
G1 X0.6S200
G1 X0.7S0
G1 X0.6S200
G1 X0.6S0
G1 X0.6S200
G1 X0.6S0
G1 X0.6S200
G1 X0.7S0
G1 X0.6S200
G1 X0.6S0
G1 X0.6S200
G1 X0.6S0
G1 X0.5S200
G1 X0.8S0
G1 X4.2S200
G1 X2.5S0
G1 Y0.1
G1 X-2.5
G1 X-4.2S200
G1 X-0.8S0
G1 X-0.5S200
G1 X-0.6S0
G1 X-0.6S200
G1 X-0.6S0
G1 X-0.6S200
G1 X-0.7S0
G1 X-0.6S200
G1 X-0.6S0
G1 X-0.6S200
G1 X-0.6S0
G1 X-0.6S200
G1 X-0.7S0
G1 X-0.6S200
G1 X-0.7S0
G1 X-0.5S200
G1 X-0.6S0
G1 X-0.6S200
G1 X-0.8S0
G1 X-0.5S200
G1 X-0.6S0
G1 X-0.6S200
G1 X-0.7S0
G1 X-0.5S200
G1 X-0.7S0
G1 X-0.6S200
G1 X-0.7S0
G1 X-0.5S200
G1 X-0.6S0
G1 X-0.6S200
G1 X-0.8S0
G1 X-0.5S200
G1 X-0.6S0
G1 X-0.6S200
G1 X-0.6S0
G1 X-4.3S200
G1 X-2.5S0
G1 Y0.1
G1 X2.5
G1 X4.3S200
G1 X0.6S0
G1 X0.6S200
G1 X0.6S0
G1 X0.5S200
G1 X0.8S0
G1 X0.6S200
G1 X0.6S0
G1 X0.5S200
G1 X0.7S0
G1 X0.6S200
G1 X0.7S0
G1 X0.5S200
G1 X0.7S0
G1 X0.6S200
G1 X0.6S0
G1 X0.5S200
G1 X0.8S0
G1 X0.6S200
G1 X0.6S0
G1 X0.5S200
G1 X0.7S0
G1 X0.6S200
G1 X0.7S0
G1 X0.6S200
G1 X0.6S0
G1 X0.6S200
G1 X0.6S0
G1 X0.6S200
G1 X0.7S0
G1 X0.6S200
G1 X0.6S0
G1 X0.6S200
G1 X0.6S0
G1 X0.5S200
G1 X0.8S0
G1 X4.2S200
G1 X2.5S0
G1 Y0.1
G1 X-2.5
G1 X-4.2S200
G1 X-0.8S0
G1 X-0.5S200
G1 X-0.6S0
G1 X-0.6S200
G1 X-0.6S0
G1 X-0.6S200
G1 X-0.7S0
G1 X-0.6S200
G1 X-0.6S0
G1 X-0.6S200
G1 X-0.6S0
G1 X-0.6S200
G1 X-0.7S0
G1 X-0.6S200
G1 X-0.7S0
G1 X-0.5S200
G1 X-0.6S0
G1 X-0.6S200
G1 X-0.8S0
G1 X-0.5S200
G1 X-0.6S0
G1 X-0.6S200
G1 X-0.7S0
G1 X-0.5S200
G1 X-0.7S0
G1 X-0.6S200
G1 X-0.7S0
G1 X-0.5S200
G1 X-0.6S0
G1 X-0.6S200
G1 X-0.8S0
G1 X-0.5S200
G1 X-0.6S0
G1 X-0.6S200
G1 X-0.6S0
G1 X-4.3S200
G1 X-2.5S0
G1 Y0.1
G1 X2.5
G1 X4.3S200
G1 X0.6S0
G1 X0.6S200
G1 X0.6S0
G1 X0.5S200
G1 X0.7S0
G1 X0.7S200
G1 X0.6S0
G1 X0.5S200
G1 X0.7S0
G1 X0.6S200
G1 X0.6S0
G1 X0.6S200
G1 X0.7S0
G1 X0.6S200
G1 X0.6S0
G1 X0.5S200
G1 X0.8S0
G1 X0.6S200
G1 X0.6S0
G1 X0.5S200
G1 X0.7S0
G1 X0.6S200
G1 X0.7S0
G1 X0.6S200
G1 X0.6S0
G1 X0.6S200
G1 X0.6S0
G1 X0.6S200
G1 X0.7S0
G1 X0.6S200
G1 X0.6S0
G1 X0.6S200
G1 X0.6S0
G1 X0.5S200
G1 X0.8S0
G1 X4.2S200
G1 X2.5S0
G1 Y0.1
G1 X-2.5
G1 X-0.5S200
G1 X-3.1S0
G1 X-0.6S200
G1 X-1.9S0
G1 X-1.2S200
G1 X-2S0
G1 X-1.1S200
G1 X-0.6S0
G1 X-1.3S200
G1 X-0.7S0
G1 X-1.1S200
G1 X-2S0
G1 X-0.5S200
G1 X-1.2S0
G1 X-1.3S200
G1 X-1.2S0
G1 X-0.6S200
G1 X-1.2S0
G1 X-0.7S200
G1 X-3S0
G1 X-0.7S200
G1 X-3.1S0
G1 X-0.5S200
G1 X-2.5S0
G1 Y0.1
G1 X2.5
G1 X0.5S200
G1 X3.1S0
G1 X0.7S200
G1 X3.1S0
G1 X0.6S200
G1 X1.2S0
G1 X0.6S200
G1 X1.3S0
G1 X1.2S200
G1 X1.2S0
G1 X0.5S200
G1 X2S0
G1 X1.1S200
G1 X0.7S0
G1 X1.3S200
G1 X0.6S0
G1 X1.1S200
G1 X2S0
G1 X1.2S200
G1 X1.9S0
G1 X0.6S200
G1 X3.1S0
G1 X0.5S200
G1 X2.5S0
G1 Y0.1
G1 X-2.5
G1 X-0.5S200
G1 X-3.1S0
G1 X-0.6S200
G1 X-1.9S0
G1 X-1.2S200
G1 X-2S0
G1 X-1.1S200
G1 X-0.6S0
G1 X-1.3S200
G1 X-0.7S0
G1 X-1.1S200
G1 X-2S0
G1 X-0.5S200
G1 X-1.2S0
G1 X-1.2S200
G1 X-1.3S0
G1 X-0.6S200
G1 X-1.2S0
G1 X-0.6S200
G1 X-3.1S0
G1 X-0.7S200
G1 X-3.1S0
G1 X-0.5S200
G1 X-2.5S0
G1 Y0.1
G1 X2.5
G1 X0.5S200
G1 X3.1S0
G1 X0.7S200
G1 X3.1S0
G1 X0.6S200
G1 X1.2S0
G1 X0.6S200
G1 X1.3S0
G1 X1.2S200
G1 X1.2S0
G1 X0.5S200
G1 X2S0
G1 X1.1S200
G1 X0.7S0
G1 X1.3S200
G1 X0.6S0
G1 X1.1S200
G1 X2S0
G1 X1.2S200
G1 X1.9S0
G1 X0.6S200
G1 X3.1S0
G1 X0.5S200
G1 X2.5S0
G1 Y0.1
G1 X-2.5
G1 X-0.5S200
G1 X-3.1S0
G1 X-0.6S200
G1 X-1.9S0
G1 X-1.2S200
G1 X-2S0
G1 X-1.1S200
G1 X-0.6S0
G1 X-1.3S200
G1 X-0.7S0
G1 X-1.1S200
G1 X-2S0
G1 X-0.5S200
G1 X-1.2S0
G1 X-1.2S200
G1 X-1.3S0
G1 X-0.6S200
G1 X-1.2S0
G1 X-0.6S200
G1 X-3.1S0
G1 X-0.7S200
G1 X-3.1S0
G1 X-0.5S200
G1 X-2.5S0
G1 Y0.1
G1 X2.5
G1 X0.5S200
G1 X3.1S0
G1 X0.7S200
G1 X3.1S0
G1 X0.6S200
G1 X1.2S0
G1 X0.6S200
G1 X1.3S0
G1 X1.2S200
G1 X1.2S0
G1 X0.5S200
G1 X2S0
G1 X1.1S200
G1 X0.7S0
G1 X1.3S200
G1 X0.6S0
G1 X1.1S200
G1 X2S0
G1 X1.2S200
G1 X1.9S0
G1 X0.6S200
G1 X3.1S0
G1 X0.5S200
G1 X2.5S0
G1 Y0.1
G1 X-2.5
G1 X-0.5S200
G1 X-0.8S0
G1 X-1.7S200
G1 X-0.6S0
G1 X-0.6S200
G1 X-2.6S0
G1 X-0.5S200
G1 X-0.7S0
G1 X-0.6S200
G1 X-4.4S0
G1 X-3.6S200
G1 X-1.9S0
G1 X-2.4S200
G1 X-0.7S0
G1 X-1.8S200
G1 X-1.2S0
G1 X-0.6S200
G1 X-0.6S0
G1 X-0.7S200
G1 X-0.6S0
G1 X-1.8S200
G1 X-0.7S0
G1 X-0.5S200
G1 X-2.5S0
G1 Y0.1
G1 X2.5
G1 X0.5S200
G1 X0.7S0
G1 X1.8S200
G1 X0.6S0
G1 X0.7S200
G1 X0.6S0
G1 X0.6S200
G1 X1.2S0
G1 X1.8S200
G1 X0.7S0
G1 X2.4S200
G1 X1.9S0
G1 X3.6S200
G1 X4.4S0
G1 X0.6S200
G1 X0.7S0
G1 X0.5S200
G1 X2.6S0
G1 X0.6S200
G1 X0.6S0
G1 X1.7S200
G1 X0.8S0
G1 X0.5S200
G1 X2.5S0
G1 Y0.1
G1 X-2.5
G1 X-0.5S200
G1 X-0.8S0
G1 X-1.7S200
G1 X-0.6S0
G1 X-0.6S200
G1 X-2.6S0
G1 X-0.5S200
G1 X-0.7S0
G1 X-0.6S200
G1 X-4.4S0
G1 X-3.6S200
G1 X-1.9S0
G1 X-2.4S200
G1 X-0.7S0
G1 X-1.8S200
G1 X-1.2S0
G1 X-0.6S200
G1 X-0.6S0
G1 X-0.7S200
G1 X-0.6S0
G1 X-1.8S200
G1 X-0.7S0
G1 X-0.5S200
G1 X-2.5S0
G1 Y0.1
G1 X2.5
G1 X0.5S200
G1 X0.7S0
G1 X1.8S200
G1 X0.6S0
G1 X0.7S200
G1 X0.6S0
G1 X0.6S200
G1 X1.2S0
G1 X1.8S200
G1 X0.7S0
G1 X2.4S200
G1 X1.9S0
G1 X3.6S200
G1 X4.4S0
G1 X0.6S200
G1 X0.7S0
G1 X0.5S200
G1 X2.6S0
G1 X0.6S200
G1 X0.6S0
G1 X1.7S200
G1 X0.8S0
G1 X0.5S200
G1 X2.5S0
G1 Y0.1
G1 X-2.5
G1 X-0.5S200
G1 X-0.8S0
G1 X-1.7S200
G1 X-0.6S0
G1 X-0.6S200
G1 X-2.6S0
G1 X-0.5S200
G1 X-0.7S0
G1 X-0.6S200
G1 X-4.4S0
G1 X-3.6S200
G1 X-1.9S0
G1 X-2.4S200
G1 X-0.7S0
G1 X-1.8S200
G1 X-1.2S0
G1 X-0.6S200
G1 X-0.6S0
G1 X-0.7S200
G1 X-0.6S0
G1 X-1.8S200
G1 X-0.7S0
G1 X-0.5S200
G1 X-2.5S0
G1 Y0.1
G1 X2.5
G1 X0.5S200
G1 X0.7S0
G1 X1.8S200
G1 X0.6S0
G1 X0.7S200
G1 X0.6S0
G1 X0.6S200
G1 X1.2S0
G1 X1.8S200
G1 X0.7S0
G1 X2.4S200
G1 X1.9S0
G1 X3.6S200
G1 X4.4S0
G1 X0.6S200
G1 X0.7S0
G1 X0.5S200
G1 X2.6S0
G1 X0.6S200
G1 X0.6S0
G1 X1.7S200
G1 X0.8S0
G1 X0.5S200
G1 X2.5S0
G1 Y0.1
G1 X-2.5
G1 X-0.5S200
G1 X-0.8S0
G1 X-1.7S200
G1 X-0.6S0
G1 X-0.6S200
G1 X-1.3S0
G1 X-0.6S200
G1 X-1.2S0
G1 X-1.3S200
G1 X-0.7S0
G1 X-3S200
G1 X-0.7S0
G1 X-6.7S200
G1 X-1.3S0
G1 X-0.5S200
G1 X-1.2S0
G1 X-0.7S200
G1 X-2.4S0
G1 X-0.7S200
G1 X-0.6S0
G1 X-1.8S200
G1 X-0.7S0
G1 X-0.5S200
G1 X-2.5S0
G1 Y0.1
G1 X2.5
G1 X0.5S200
G1 X0.7S0
G1 X1.8S200
G1 X0.6S0
G1 X0.7S200
G1 X2.4S0
G1 X0.7S200
G1 X1.2S0
G1 X0.5S200
G1 X1.3S0
G1 X6.7S200
G1 X0.7S0
G1 X3S200
G1 X0.7S0
G1 X1.3S200
G1 X1.2S0
G1 X0.6S200
G1 X1.3S0
G1 X0.6S200
G1 X0.6S0
G1 X1.7S200
G1 X0.8S0
G1 X0.5S200
G1 X2.5S0
G1 Y0.1
G1 X-2.5
G1 X-0.5S200
G1 X-0.8S0
G1 X-1.7S200
G1 X-0.6S0
G1 X-0.6S200
G1 X-1.3S0
G1 X-0.6S200
G1 X-1.2S0
G1 X-1.3S200
G1 X-0.7S0
G1 X-3S200
G1 X-0.7S0
G1 X-6.7S200
G1 X-1.3S0
G1 X-0.5S200
G1 X-1.2S0
G1 X-0.7S200
G1 X-2.4S0
G1 X-0.7S200
G1 X-0.6S0
G1 X-1.8S200
G1 X-0.7S0
G1 X-0.5S200
G1 X-2.5S0
G1 Y0.1
G1 X2.5
G1 X0.5S200
G1 X0.7S0
G1 X1.8S200
G1 X0.6S0
G1 X0.7S200
G1 X2.4S0
G1 X0.7S200
G1 X1.2S0
G1 X0.5S200
G1 X1.3S0
G1 X6.7S200
G1 X0.7S0
G1 X3S200
G1 X0.7S0
G1 X1.3S200
G1 X1.2S0
G1 X0.6S200
G1 X1.3S0
G1 X0.6S200
G1 X0.6S0
G1 X1.7S200
G1 X0.8S0
G1 X0.5S200
G1 X2.5S0
G1 Y0.1
G1 X-2.5
G1 X-0.5S200
G1 X-0.8S0
G1 X-1.7S200
G1 X-0.6S0
G1 X-0.6S200
G1 X-1.3S0
G1 X-0.6S200
G1 X-1.2S0
G1 X-1.3S200
G1 X-0.7S0
G1 X-3S200
G1 X-0.7S0
G1 X-6.7S200
G1 X-1.3S0
G1 X-0.5S200
G1 X-1.2S0
G1 X-0.7S200
G1 X-2.4S0
G1 X-0.7S200
G1 X-0.6S0
G1 X-1.8S200
G1 X-0.7S0
G1 X-0.5S200
G1 X-2.5S0
G1 Y0.1
G1 X2.5
G1 X0.5S200
G1 X0.7S0
G1 X1.8S200
G1 X0.6S0
G1 X0.7S200
G1 X2.4S0
G1 X0.7S200
G1 X1.2S0
G1 X0.5S200
G1 X1.3S0
G1 X6.7S200
G1 X0.7S0
G1 X3S200
G1 X0.7S0
G1 X1.3S200
G1 X1.2S0
G1 X0.6S200
G1 X1.3S0
G1 X0.6S200
G1 X0.6S0
G1 X1.7S200
G1 X0.8S0
G1 X0.5S200
G1 X2.5S0
G1 Y0.1
G1 X-2.5
G1 X-0.5S200
G1 X-0.8S0
G1 X-1.7S200
G1 X-0.6S0
G1 X-0.6S200
G1 X-1.3S0
G1 X-0.6S200
G1 X-1.2S0
G1 X-1.3S200
G1 X-0.7S0
G1 X-3S200
G1 X-0.7S0
G1 X-6.7S200
G1 X-1.3S0
G1 X-0.5S200
G1 X-1.2S0
G1 X-0.7S200
G1 X-2.4S0
G1 X-0.7S200
G1 X-0.6S0
G1 X-1.8S200
G1 X-0.7S0
G1 X-0.5S200
G1 X-2.5S0
G1 Y0.1
G1 X2.5
G1 X0.5S200
G1 X0.7S0
G1 X1.8S200
G1 X0.6S0
G1 X0.7S200
G1 X1.2S0
G1 X1.9S200
G1 X0.6S0
G1 X0.5S200
G1 X0.7S0
G1 X0.6S200
G1 X1.9S0
G1 X0.6S200
G1 X0.6S0
G1 X0.6S200
G1 X0.6S0
G1 X0.7S200
G1 X1.2S0
G1 X0.5S200
G1 X1.3S0
G1 X1.8S200
G1 X1.9S0
G1 X1.8S200
G1 X0.7S0
G1 X1.1S200
G1 X0.8S0
G1 X0.6S200
G1 X0.6S0
G1 X1.7S200
G1 X0.8S0
G1 X0.5S200
G1 X2.5S0
G1 Y0.1
G1 X-2.5
G1 X-0.5S200
G1 X-0.8S0
G1 X-1.7S200
G1 X-0.6S0
G1 X-0.6S200
G1 X-0.8S0
G1 X-1.1S200
G1 X-0.7S0
G1 X-1.8S200
G1 X-1.9S0
G1 X-1.8S200
G1 X-1.3S0
G1 X-0.5S200
G1 X-1.2S0
G1 X-0.7S200
G1 X-0.6S0
G1 X-0.6S200
G1 X-0.6S0
G1 X-0.6S200
G1 X-1.9S0
G1 X-0.6S200
G1 X-0.7S0
G1 X-0.5S200
G1 X-0.6S0
G1 X-1.9S200
G1 X-1.2S0
G1 X-0.7S200
G1 X-0.6S0
G1 X-1.8S200
G1 X-0.7S0
G1 X-0.5S200
G1 X-2.5S0
G1 Y0.1
G1 X2.5
G1 X0.5S200
G1 X0.7S0
G1 X1.8S200
G1 X0.6S0
G1 X0.7S200
G1 X1.2S0
G1 X1.9S200
G1 X0.6S0
G1 X0.5S200
G1 X0.7S0
G1 X0.6S200
G1 X1.9S0
G1 X0.6S200
G1 X0.6S0
G1 X0.6S200
G1 X0.6S0
G1 X0.7S200
G1 X1.2S0
G1 X0.5S200
G1 X1.3S0
G1 X1.8S200
G1 X1.9S0
G1 X1.8S200
G1 X0.7S0
G1 X1.1S200
G1 X0.8S0
G1 X0.6S200
G1 X0.6S0
G1 X1.7S200
G1 X0.8S0
G1 X0.5S200
G1 X2.5S0
G1 Y0.1
G1 X-2.5
G1 X-0.5S200
G1 X-0.8S0
G1 X-1.7S200
G1 X-0.6S0
G1 X-0.6S200
G1 X-0.8S0
G1 X-1.1S200
G1 X-0.7S0
G1 X-1.8S200
G1 X-1.9S0
G1 X-1.8S200
G1 X-1.3S0
G1 X-0.5S200
G1 X-1.2S0
G1 X-0.7S200
G1 X-0.6S0
G1 X-0.6S200
G1 X-0.6S0
G1 X-0.6S200
G1 X-1.9S0
G1 X-0.6S200
G1 X-0.7S0
G1 X-0.5S200
G1 X-0.6S0
G1 X-1.9S200
G1 X-1.2S0
G1 X-0.7S200
G1 X-0.6S0
G1 X-1.8S200
G1 X-0.7S0
G1 X-0.5S200
G1 X-2.5S0
G1 Y0.1
G1 X2.5
G1 X0.5S200
G1 X0.7S0
G1 X1.8S200
G1 X0.6S0
G1 X0.7S200
G1 X1.2S0
G1 X1.9S200
G1 X0.6S0
G1 X0.5S200
G1 X0.7S0
G1 X0.6S200
G1 X1.9S0
G1 X0.6S200
G1 X0.6S0
G1 X0.6S200
G1 X0.6S0
G1 X0.7S200
G1 X1.2S0
G1 X0.5S200
G1 X1.3S0
G1 X1.8S200
G1 X1.9S0
G1 X1.8S200
G1 X0.7S0
G1 X1.1S200
G1 X0.8S0
G1 X0.6S200
G1 X0.6S0
G1 X1.7S200
G1 X0.8S0
G1 X0.5S200
G1 X2.5S0
G1 Y0.1
G1 X-2.5
G1 X-0.5S200
G1 X-0.8S0
G1 X-1.7S200
G1 X-0.6S0
G1 X-0.6S200
G1 X-0.6S0
G1 X-1.3S200
G1 X-0.7S0
G1 X-1.8S200
G1 X-1.9S0
G1 X-1.8S200
G1 X-1.3S0
G1 X-0.5S200
G1 X-1.4S0
G1 X-0.5S200
G1 X-0.6S0
G1 X-0.6S200
G1 X-0.6S0
G1 X-0.6S200
G1 X-1.9S0
G1 X-0.6S200
G1 X-0.7S0
G1 X-0.5S200
G1 X-0.7S0
G1 X-1.8S200
G1 X-1.2S0
G1 X-0.7S200
G1 X-0.6S0
G1 X-1.8S200
G1 X-0.7S0
G1 X-0.5S200
G1 X-2.5S0
G1 Y0.1
G1 X2.5
G1 X0.5S200
G1 X3.1S0
G1 X0.7S200
G1 X1.2S0
G1 X0.5S200
G1 X2S0
G1 X1.1S200
G1 X0.7S0
G1 X1.2S200
G1 X1.9S0
G1 X0.6S200
G1 X1.9S0
G1 X0.6S200
G1 X0.6S0
G1 X1.2S200
G1 X1.9S0
G1 X0.6S200
G1 X0.6S0
G1 X1.9S200
G1 X0.6S0
G1 X1.7S200
G1 X0.8S0
G1 X0.6S200
G1 X3.1S0
G1 X0.5S200
G1 X2.5S0
G1 Y0.1
G1 X-2.5
G1 X-0.5S200
G1 X-3.1S0
G1 X-0.6S200
G1 X-0.8S0
G1 X-1.7S200
G1 X-0.6S0
G1 X-1.9S200
G1 X-0.6S0
G1 X-0.6S200
G1 X-1.9S0
G1 X-1.2S200
G1 X-0.6S0
G1 X-0.6S200
G1 X-1.9S0
G1 X-0.6S200
G1 X-1.9S0
G1 X-1.2S200
G1 X-0.7S0
G1 X-1.1S200
G1 X-2S0
G1 X-0.5S200
G1 X-1.2S0
G1 X-0.7S200
G1 X-3.1S0
G1 X-0.5S200
G1 X-2.5S0
G1 Y0.1
G1 X2.5
G1 X0.5S200
G1 X3.1S0
G1 X0.7S200
G1 X1.2S0
G1 X0.5S200
G1 X2S0
G1 X1.1S200
G1 X0.7S0
G1 X1.2S200
G1 X1.9S0
G1 X0.6S200
G1 X1.9S0
G1 X0.6S200
G1 X0.6S0
G1 X1.2S200
G1 X1.9S0
G1 X0.6S200
G1 X0.6S0
G1 X1.9S200
G1 X0.6S0
G1 X1.7S200
G1 X0.8S0
G1 X0.6S200
G1 X3.1S0
G1 X0.5S200
G1 X2.5S0
G1 Y0.1
G1 X-2.5
G1 X-0.5S200
G1 X-3.1S0
G1 X-0.6S200
G1 X-0.8S0
G1 X-1.7S200
G1 X-0.6S0
G1 X-1.9S200
G1 X-0.6S0
G1 X-0.6S200
G1 X-1.9S0
G1 X-1.2S200
G1 X-0.6S0
G1 X-0.6S200
G1 X-1.9S0
G1 X-0.6S200
G1 X-1.9S0
G1 X-1.2S200
G1 X-0.7S0
G1 X-1.1S200
G1 X-2S0
G1 X-0.5S200
G1 X-1.2S0
G1 X-0.7S200
G1 X-3.1S0
G1 X-0.5S200
G1 X-2.5S0
G1 Y0.1
G1 X2.5
G1 X0.5S200
G1 X3.1S0
G1 X0.7S200
G1 X1.2S0
G1 X0.5S200
G1 X2S0
G1 X1.1S200
G1 X0.7S0
G1 X1.2S200
G1 X1.9S0
G1 X0.6S200
G1 X1.9S0
G1 X0.6S200
G1 X0.6S0
G1 X1.2S200
G1 X1.9S0
G1 X0.6S200
G1 X0.6S0
G1 X1.9S200
G1 X0.6S0
G1 X1.7S200
G1 X0.8S0
G1 X0.6S200
G1 X3.1S0
G1 X0.5S200
G1 X2.5S0
G1 Y0.1
G1 X-2.5
G1 X-0.5S200
G1 X-3.1S0
G1 X-0.6S200
G1 X-0.8S0
G1 X-1.7S200
G1 X-0.6S0
G1 X-1.9S200
G1 X-0.6S0
G1 X-0.6S200
G1 X-1.9S0
G1 X-1.2S200
G1 X-0.6S0
G1 X-0.6S200
G1 X-1.9S0
G1 X-0.6S200
G1 X-1.9S0
G1 X-1.2S200
G1 X-0.7S0
G1 X-1.1S200
G1 X-2S0
G1 X-0.5S200
G1 X-1.2S0
G1 X-0.7S200
G1 X-3.1S0
G1 X-0.5S200
G1 X-2.5S0
G1 Y0.1
G1 X2.5
G1 X4.3S200
G1 X1.2S0
G1 X0.5S200
G1 X0.7S0
G1 X0.7S200
G1 X1.8S0
G1 X3.1S200
G1 X0.6S0
G1 X0.6S200
G1 X0.6S0
G1 X0.7S200
G1 X0.6S0
G1 X0.6S200
G1 X3.1S0
G1 X1.2S200
G1 X1.2S0
G1 X1.3S200
G1 X1.8S0
G1 X0.5S200
G1 X0.8S0
G1 X4.2S200
G1 X2.5S0
G1 Y0.1
G1 X-2.5
G1 X-4.2S200
G1 X-0.8S0
G1 X-0.5S200
G1 X-1.8S0
G1 X-1.3S200
G1 X-1.2S0
G1 X-1.2S200
G1 X-3.1S0
G1 X-0.6S200
G1 X-0.6S0
G1 X-0.7S200
G1 X-0.6S0
G1 X-0.6S200
G1 X-0.6S0
G1 X-3.1S200
G1 X-1.8S0
G1 X-0.7S200
G1 X-0.7S0
G1 X-0.5S200
G1 X-1.2S0
G1 X-4.3S200
G1 X-2.5S0
G1 Y0.1
G1 X2.5
G1 X4.3S200
G1 X1.2S0
G1 X0.5S200
G1 X0.7S0
G1 X0.7S200
G1 X1.8S0
G1 X3.1S200
G1 X0.6S0
G1 X0.6S200
G1 X0.6S0
G1 X0.7S200
G1 X0.6S0
G1 X0.6S200
G1 X3.1S0
G1 X1.2S200
G1 X1.2S0
G1 X1.3S200
G1 X1.8S0
G1 X0.5S200
G1 X0.8S0
G1 X4.2S200
G1 X2.5S0
G1 Y0.1
G1 X-2.5
G1 X-4.2S200
G1 X-0.8S0
G1 X-0.5S200
G1 X-1.8S0
G1 X-1.3S200
G1 X-1.2S0
G1 X-1.2S200
G1 X-3.1S0
G1 X-0.6S200
G1 X-0.6S0
G1 X-0.7S200
G1 X-0.6S0
G1 X-0.6S200
G1 X-0.6S0
G1 X-3.1S200
G1 X-1.8S0
G1 X-0.7S200
G1 X-0.7S0
G1 X-0.5S200
G1 X-1.2S0
G1 X-4.3S200
G1 X-2.5S0
G1 Y0.1
G1 X2.5
G1 X4.3S200
G1 X1.2S0
G1 X0.5S200
G1 X0.7S0
G1 X0.7S200
G1 X1.8S0
G1 X3.1S200
G1 X0.6S0
G1 X0.6S200
G1 X0.6S0
G1 X0.7S200
G1 X0.6S0
G1 X0.6S200
G1 X3.1S0
G1 X1.2S200
G1 X1.2S0
G1 X1.3S200
G1 X1.8S0
G1 X0.5S200
G1 X0.8S0
G1 X4.2S200
G1 X2.5S0
G90
M9
G1 S0
M5
G90
; return to user-defined finish pos
G0 X0Y0
M2
